; generated by PrusaSlicer 2.2.0+ on 2020-09-09 at 19:56:19 UTC

; 

; external perimeters extrusion width = 0.90mm
; perimeters extrusion width = 0.90mm
; infill extrusion width = 0.90mm
; solid infill extrusion width = 0.90mm
; top infill extrusion width = 0.80mm

M107
G90 ; use absolute coordinates

M140 S60 ; set bed temp
M190 S60 ; wait for bed temp

G28 ; home all axes
G29; level bed
M420 S1 Z10 V1; enable bed leveling
G1 X50 Y50 Z50 F5000

M104 S225 ; set extruder temp
M109 S225 ; wait for extruder temp


G92 E0                ; Reset extruder

G1 Y0 X-1 Z0.4 F5000 ; move outside print area
G1 Y60 E9 F500 ; start purge line
G1 Y100 E12.5 F500 ; finish purge line



G92 E0                ; Reset extruder

G1 E-1 F1400          ; Retract 1mm filament
G21 ; set units to millimeters
G90 ; use absolute coordinates
M82 ; use absolute distances for extrusion
G92 E0
; Filament gcode
M572 D0 S0.07 ; Filament-specific Linear Advance or Pressure Advance
G1 Z0.300 F7800.000
G1 E-1.00000 F3000.00000
G92 E0
G1 X35.497 Y74.425 F7800.000
G1 E1.00000 F3000.00000
G1 F1800.000
G1 X38.719 Y73.569 E1.34743
G1 X42.025 Y73.270 E1.69342
G1 X317.867 Y73.269 E30.44252
G1 X321.304 Y73.573 E30.80215
G1 X324.704 Y74.499 E31.16946
G1 X327.826 Y75.981 E31.52966
G1 X330.113 Y77.563 E31.81942
G1 X330.941 Y78.267 E31.93272
G1 X332.653 Y79.984 E32.18543
G1 X333.330 Y80.817 E32.29730
G1 X334.896 Y83.105 E32.58632
G1 X336.100 Y85.619 E32.87676
G1 X336.493 Y86.662 E32.99290
G1 X337.192 Y89.310 E33.27839
G1 X337.518 Y92.497 E33.61224
G1 X337.525 Y267.361 E51.83714
G1 X337.299 Y270.017 E52.11492
G1 X337.096 Y271.098 E52.22964
G1 X336.337 Y273.808 E52.52293
G1 X335.125 Y276.468 E52.82763
G1 X334.597 Y277.372 E52.93665
G1 X332.906 Y279.731 E53.23920
G1 X330.885 Y281.787 E53.53965
G1 X330.005 Y282.514 E53.65863
G1 X327.587 Y284.157 E53.96329
G1 X324.503 Y285.575 E54.31710
G1 X321.281 Y286.431 E54.66452
G1 X317.975 Y286.730 E55.01052
G1 X42.058 Y286.731 E83.76747
G1 X39.231 Y286.504 E84.06304
G1 X38.148 Y286.308 E84.17776
G1 X35.405 Y285.542 E84.47461
G1 X32.768 Y284.343 E84.77646
G1 X31.840 Y283.805 E84.88834
G1 X29.479 Y282.115 E85.19089
G1 X27.413 Y280.085 E85.49275
G1 X26.686 Y279.205 E85.61173
G1 X25.046 Y276.793 E85.91569
G1 X23.627 Y273.710 E86.26950
G1 X22.771 Y270.495 E86.61620
G1 X22.471 Y267.230 E86.95794
G1 X22.470 Y92.817 E105.13580
G1 X22.697 Y90.017 E105.42853
G1 X22.896 Y88.935 E105.54325
G1 X23.658 Y86.205 E105.83868
G1 X24.860 Y83.562 E106.14124
G1 X25.399 Y82.634 E106.25311
G1 X27.089 Y80.274 E106.55566
G1 X29.115 Y78.213 E106.85681
G1 X29.995 Y77.486 E106.97580
G1 X32.413 Y75.843 E107.28046
G1 X35.388 Y74.475 E107.62176
G1 E106.62176 F3000.00000
G92 E0
G1 X38.931 Y74.380 F7800.000
G1 E1.00000 F3000.00000
G1 F1800.000
G1 X42.073 Y74.105 E1.32877
G1 X317.866 Y74.104 E30.07280
G1 X321.154 Y74.395 E30.41676
G1 X324.403 Y75.278 E30.76767
G1 X327.393 Y76.696 E31.11253
G1 X329.615 Y78.235 E31.39426
G1 X330.367 Y78.874 E31.49717
G1 X332.034 Y80.546 E31.74325
G1 X332.649 Y81.302 E31.84481
G1 X334.174 Y83.526 E32.12584
G1 X335.345 Y85.976 E32.40888
G1 X335.696 Y86.913 E32.51313
G1 X336.378 Y89.502 E32.79217
G1 X336.688 Y92.615 E33.11822
G1 X336.688 Y267.383 E51.33307
G1 X336.414 Y270.303 E51.63875
G1 X335.727 Y272.977 E51.92650
G1 X335.387 Y273.931 E52.03210
G1 X334.193 Y276.442 E52.32188
G1 X332.592 Y278.778 E52.61702
G1 X331.957 Y279.535 E52.71993
G1 X329.974 Y281.483 E53.00972
G1 X327.765 Y283.063 E53.29275
G1 X326.776 Y283.635 E53.41177
G1 X324.688 Y284.606 E53.65179
G1 X323.856 Y284.905 E53.74395
G1 X321.069 Y285.620 E54.04380
G1 X317.927 Y285.895 E54.37257
G1 X42.004 Y285.894 E83.13006
G1 X38.935 Y285.621 E83.45121
G1 X36.254 Y284.936 E83.73962
G1 X35.280 Y284.592 E83.84723
G1 X32.786 Y283.408 E84.13500
G1 X30.427 Y281.796 E84.43283
G1 X29.670 Y281.162 E84.53574
G1 X27.717 Y279.174 E84.82618
G1 X26.133 Y276.960 E85.10990
G1 X25.565 Y275.976 E85.22825
G1 X24.597 Y273.894 E85.46759
G1 X24.297 Y273.062 E85.55976
G1 X23.581 Y270.276 E85.85960
G1 X23.305 Y267.166 E86.18502
G1 X23.308 Y92.733 E104.36489
G1 X23.582 Y89.716 E104.68066
G1 X24.268 Y87.042 E104.96841
G1 X24.611 Y86.075 E105.07535
G1 X25.798 Y83.575 E105.36378
G1 X27.404 Y81.227 E105.66026
G1 X28.043 Y80.465 E105.76385
G1 X30.026 Y78.517 E106.05363
G1 X32.235 Y76.937 E106.33667
G1 X33.224 Y76.365 E106.45568
G1 X35.312 Y75.394 E106.69570
G1 X36.144 Y75.095 E106.78787
G1 X38.814 Y74.410 E107.07521
G1 E106.07521 F3000.00000
G92 E0
G1 X182.347 Y272.379 F7800.000
G1 E1.00000 F3000.00000
G1 F1800.000
G1 X182.628 Y272.917 E1.06329
G1 X182.789 Y273.462 E1.12248
G1 X182.829 Y274.064 E1.18538
G1 X182.723 Y274.620 E1.24432
G1 X182.534 Y275.102 E1.29832
G1 X182.261 Y275.538 E1.35190
G1 X181.915 Y275.912 E1.40500
G1 X181.509 Y276.212 E1.45760
G1 X181.059 Y276.430 E1.50972
G1 X180.581 Y276.559 E1.56136
G1 X180.091 Y276.596 E1.61252
G1 X179.608 Y276.543 E1.66321
G1 X179.173 Y276.409 E1.71059
G1 X178.799 Y276.232 E1.75372
G1 X178.424 Y275.992 E1.80019
G1 X178.071 Y275.656 E1.85098
G1 X177.788 Y275.259 E1.90178
G1 X177.585 Y274.816 E1.95257
G1 X177.470 Y274.342 E2.00337
G1 X177.447 Y273.856 E2.05416
G1 X177.517 Y273.373 E2.10496
G1 X177.669 Y272.938 E2.15296
G1 X177.867 Y272.561 E2.19742
G1 X178.109 Y272.216 E2.24124
G1 X178.472 Y271.857 E2.29451
G1 X178.937 Y271.558 E2.35216
G1 X179.427 Y271.371 E2.40682
G1 X179.948 Y271.282 E2.46187
G1 X180.474 Y271.297 E2.51674
G1 X180.994 Y271.414 E2.57225
G1 X181.485 Y271.632 E2.62820
G1 X181.928 Y271.942 E2.68459
G1 X182.264 Y272.293 E2.73517
G1 X181.072 Y272.363 F7800.000
G1 F1800.000
G1 X181.381 Y272.580 E2.77458
G1 X181.661 Y272.872 E2.81678
G1 X181.850 Y273.232 E2.85914
G1 X181.961 Y273.610 E2.90019
G1 X181.988 Y274.013 E2.94232
G1 X181.917 Y274.387 E2.98201
G1 X181.785 Y274.725 E3.01976
G1 X181.595 Y275.028 E3.05704
G1 X181.355 Y275.287 E3.09382
G1 X181.075 Y275.494 E3.13011
G1 X180.766 Y275.643 E3.16591
G1 X180.439 Y275.732 E3.20123
G1 X180.105 Y275.757 E3.23606
G1 X179.778 Y275.721 E3.27041
G1 X179.476 Y275.628 E3.30328
G1 X179.205 Y275.500 E3.33456
G1 X178.942 Y275.331 E3.36716
G1 X178.704 Y275.106 E3.40128
G1 X178.514 Y274.839 E3.43540
G1 X178.378 Y274.541 E3.46951
G1 X178.301 Y274.223 E3.50363
G1 X178.286 Y273.896 E3.53775
G1 X178.333 Y273.572 E3.57187
G1 X178.437 Y273.272 E3.60501
G1 X178.582 Y272.997 E3.63741
G1 X178.750 Y272.758 E3.66786
G1 X178.997 Y272.513 E3.70416
G1 X179.316 Y272.308 E3.74366
G1 X179.650 Y272.181 E3.78087
G1 X180.006 Y272.120 E3.81855
G1 X180.370 Y272.130 E3.85647
G1 X180.730 Y272.211 E3.89494
G1 X180.962 Y272.314 E3.92137
G1 X181.397 Y272.171 F7800.000
G1 E2.92137 F3000.00000
G92 E0
G1 X287.447 Y273.856 F7800.000
G1 E1.00000 F3000.00000
G1 F1800.000
G1 X287.517 Y273.373 E1.05079
G1 X287.669 Y272.938 E1.09879
G1 X287.867 Y272.561 E1.14325
G1 X288.109 Y272.216 E1.18708
G1 X288.472 Y271.857 E1.24035
G1 X288.937 Y271.558 E1.29800
G1 X289.427 Y271.371 E1.35266
G1 X289.948 Y271.282 E1.40771
G1 X290.474 Y271.297 E1.46258
G1 X290.994 Y271.414 E1.51809
G1 X291.485 Y271.632 E1.57404
G1 X291.928 Y271.942 E1.63043
G1 X292.347 Y272.379 E1.69352
G1 X292.628 Y272.917 E1.75680
G1 X292.789 Y273.462 E1.81600
G1 X292.829 Y274.064 E1.87890
G1 X292.723 Y274.620 E1.93784
G1 X292.534 Y275.102 E1.99184
G1 X292.261 Y275.538 E2.04542
G1 X291.915 Y275.912 E2.09851
G1 X291.509 Y276.212 E2.15112
G1 X291.059 Y276.430 E2.20324
G1 X290.581 Y276.559 E2.25488
G1 X290.091 Y276.596 E2.30604
G1 X289.608 Y276.543 E2.35673
G1 X289.173 Y276.409 E2.40411
G1 X288.799 Y276.232 E2.44724
G1 X288.424 Y275.992 E2.49371
G1 X288.071 Y275.656 E2.54450
G1 X287.788 Y275.259 E2.59530
G1 X287.585 Y274.816 E2.64609
G1 X287.470 Y274.342 E2.69689
G1 X287.453 Y273.975 E2.73517
G1 X288.286 Y273.896 F7800.000
G1 F1800.000
G1 X288.333 Y273.572 E2.76929
G1 X288.437 Y273.272 E2.80243
G1 X288.582 Y272.997 E2.83484
G1 X288.750 Y272.758 E2.86529
G1 X288.997 Y272.513 E2.90159
G1 X289.316 Y272.308 E2.94108
G1 X289.650 Y272.181 E2.97830
G1 X290.006 Y272.120 E3.01597
G1 X290.370 Y272.130 E3.05390
G1 X290.730 Y272.211 E3.09237
G1 X291.072 Y272.363 E3.13131
G1 X291.381 Y272.580 E3.17072
G1 X291.661 Y272.872 E3.21291
G1 X291.850 Y273.232 E3.25527
G1 X291.961 Y273.610 E3.29632
G1 X291.988 Y274.013 E3.33845
G1 X291.917 Y274.387 E3.37814
G1 X291.785 Y274.725 E3.41589
G1 X291.595 Y275.028 E3.45317
G1 X291.355 Y275.287 E3.48995
G1 X291.075 Y275.494 E3.52624
G1 X290.766 Y275.643 E3.56205
G1 X290.439 Y275.732 E3.59736
G1 X290.105 Y275.757 E3.63219
G1 X289.778 Y275.721 E3.66654
G1 X289.476 Y275.628 E3.69942
G1 X289.205 Y275.500 E3.73069
G1 X288.942 Y275.331 E3.76329
G1 X288.704 Y275.106 E3.79741
G1 X288.514 Y274.839 E3.83153
G1 X288.378 Y274.541 E3.86565
G1 X288.301 Y274.223 E3.89976
G1 X288.291 Y274.016 E3.92137
G1 X288.011 Y273.719 F7800.000
G1 E2.92137 F3000.00000
G92 E0
G1 X322.851 Y240.876 F7800.000
G1 E1.00000 F3000.00000
G1 F1800.000
G1 X322.568 Y240.479 E1.05080
G1 X322.365 Y240.036 E1.10159
G1 X322.250 Y239.562 E1.15238
G1 X322.227 Y239.076 E1.20318
G1 X322.297 Y238.593 E1.25397
G1 X322.449 Y238.158 E1.30197
G1 X322.647 Y237.781 E1.34643
G1 X322.889 Y237.436 E1.39026
G1 X323.252 Y237.077 E1.44353
G1 X323.717 Y236.778 E1.50118
G1 X324.207 Y236.591 E1.55584
G1 X324.728 Y236.502 E1.61089
G1 X325.254 Y236.517 E1.66576
G1 X325.774 Y236.634 E1.72127
G1 X326.265 Y236.852 E1.77722
G1 X326.708 Y237.163 E1.83361
G1 X327.127 Y237.599 E1.89669
G1 X327.408 Y238.137 E1.95998
G1 X327.569 Y238.682 E2.01917
G1 X327.609 Y239.284 E2.08208
G1 X327.503 Y239.840 E2.14101
G1 X327.314 Y240.322 E2.19502
G1 X327.041 Y240.758 E2.24860
G1 X326.695 Y241.132 E2.30169
G1 X326.289 Y241.432 E2.35430
G1 X325.839 Y241.650 E2.40642
G1 X325.361 Y241.779 E2.45806
G1 X324.871 Y241.816 E2.50922
G1 X324.388 Y241.763 E2.55991
G1 X323.953 Y241.629 E2.60729
G1 X323.579 Y241.452 E2.65042
G1 X323.204 Y241.212 E2.69688
G1 X322.938 Y240.959 E2.73517
G1 X323.484 Y240.326 F7800.000
G1 F1800.000
G1 X323.294 Y240.059 E2.76929
G1 X323.158 Y239.761 E2.80341
G1 X323.081 Y239.443 E2.83752
G1 X323.066 Y239.116 E2.87164
G1 X323.113 Y238.792 E2.90576
G1 X323.217 Y238.492 E2.93890
G1 X323.362 Y238.217 E2.97131
G1 X323.530 Y237.978 E3.00175
G1 X323.777 Y237.733 E3.03805
G1 X324.096 Y237.528 E3.07755
G1 X324.430 Y237.401 E3.11477
G1 X324.786 Y237.340 E3.15244
G1 X325.150 Y237.350 E3.19037
G1 X325.510 Y237.431 E3.22883
G1 X325.852 Y237.583 E3.26777
G1 X326.161 Y237.800 E3.30718
G1 X326.441 Y238.092 E3.34937
G1 X326.630 Y238.452 E3.39173
G1 X326.741 Y238.830 E3.43279
G1 X326.768 Y239.233 E3.47492
G1 X326.697 Y239.607 E3.51460
G1 X326.565 Y239.945 E3.55235
G1 X326.375 Y240.248 E3.58963
G1 X326.135 Y240.507 E3.62642
G1 X325.855 Y240.714 E3.66271
G1 X325.546 Y240.863 E3.69851
G1 X325.219 Y240.952 E3.73383
G1 X324.885 Y240.977 E3.76866
G1 X324.558 Y240.941 E3.80300
G1 X324.256 Y240.848 E3.83588
G1 X323.985 Y240.720 E3.86715
G1 X323.722 Y240.551 E3.89976
G1 X323.571 Y240.408 E3.92137
G1 X323.163 Y240.388 F7800.000
G1 E2.92137 F3000.00000
G92 E0
G1 X324.871 Y123.416 F7800.000
G1 E1.00000 F3000.00000
G1 F1800.000
G1 X324.388 Y123.363 E1.05069
G1 X323.953 Y123.229 E1.09807
G1 X323.579 Y123.052 E1.14120
G1 X323.204 Y122.812 E1.18766
G1 X322.851 Y122.476 E1.23846
G1 X322.568 Y122.079 E1.28926
G1 X322.365 Y121.636 E1.34005
G1 X322.250 Y121.162 E1.39085
G1 X322.227 Y120.676 E1.44164
G1 X322.297 Y120.193 E1.49243
G1 X322.449 Y119.758 E1.54043
G1 X322.647 Y119.381 E1.58490
G1 X322.889 Y119.036 E1.62872
G1 X323.252 Y118.677 E1.68199
G1 X323.717 Y118.378 E1.73964
G1 X324.207 Y118.191 E1.79430
G1 X324.728 Y118.102 E1.84935
G1 X325.254 Y118.117 E1.90422
G1 X325.774 Y118.234 E1.95973
G1 X326.265 Y118.452 E2.01568
G1 X326.708 Y118.763 E2.07207
G1 X327.127 Y119.199 E2.13516
G1 X327.408 Y119.737 E2.19844
G1 X327.569 Y120.282 E2.25763
G1 X327.609 Y120.884 E2.32054
G1 X327.503 Y121.440 E2.37948
G1 X327.314 Y121.922 E2.43348
G1 X327.041 Y122.358 E2.48706
G1 X326.695 Y122.732 E2.54015
G1 X326.289 Y123.032 E2.59276
G1 X325.839 Y123.250 E2.64488
G1 X325.361 Y123.379 E2.69652
G1 X324.991 Y123.407 E2.73517
G1 X324.885 Y122.577 F7800.000
G1 F1800.000
G1 X324.558 Y122.541 E2.76952
G1 X324.256 Y122.448 E2.80240
G1 X323.985 Y122.320 E2.83367
G1 X323.722 Y122.151 E2.86628
G1 X323.484 Y121.926 E2.90040
G1 X323.294 Y121.659 E2.93451
G1 X323.158 Y121.361 E2.96863
G1 X323.081 Y121.043 E3.00275
G1 X323.066 Y120.716 E3.03686
G1 X323.113 Y120.392 E3.07098
G1 X323.217 Y120.092 E3.10412
G1 X323.362 Y119.817 E3.13653
G1 X323.530 Y119.578 E3.16698
G1 X323.777 Y119.333 E3.20327
G1 X324.096 Y119.128 E3.24277
G1 X324.430 Y119.001 E3.27999
G1 X324.786 Y118.940 E3.31766
G1 X325.150 Y118.950 E3.35559
G1 X325.510 Y119.031 E3.39406
G1 X325.852 Y119.183 E3.43299
G1 X326.161 Y119.400 E3.47240
G1 X326.441 Y119.692 E3.51459
G1 X326.630 Y120.052 E3.55696
G1 X326.741 Y120.430 E3.59801
G1 X326.768 Y120.833 E3.64014
G1 X326.697 Y121.207 E3.67983
G1 X326.565 Y121.545 E3.71758
G1 X326.375 Y121.848 E3.75485
G1 X326.135 Y122.107 E3.79164
G1 X325.855 Y122.314 E3.82793
G1 X325.546 Y122.463 E3.86373
G1 X325.219 Y122.552 E3.89905
G1 X325.005 Y122.568 E3.92137
G1 X324.716 Y122.860 F7800.000
G1 E2.92137 F3000.00000
G92 E0
G1 X291.915 Y87.952 F7800.000
G1 E1.00000 F3000.00000
G1 F1800.000
G1 X291.509 Y88.252 E1.05260
G1 X291.059 Y88.470 E1.10473
G1 X290.581 Y88.599 E1.15637
G1 X290.091 Y88.636 E1.20753
G1 X289.608 Y88.583 E1.25822
G1 X289.173 Y88.449 E1.30560
G1 X288.799 Y88.272 E1.34872
G1 X288.424 Y88.032 E1.39519
G1 X288.071 Y87.696 E1.44599
G1 X287.788 Y87.299 E1.49678
G1 X287.585 Y86.856 E1.54758
G1 X287.470 Y86.382 E1.59837
G1 X287.447 Y85.896 E1.64917
G1 X287.517 Y85.413 E1.69996
G1 X287.669 Y84.978 E1.74796
G1 X287.867 Y84.601 E1.79242
G1 X288.109 Y84.256 E1.83624
G1 X288.472 Y83.897 E1.88952
G1 X288.937 Y83.598 E1.94716
G1 X289.427 Y83.411 E2.00183
G1 X289.948 Y83.322 E2.05687
G1 X290.474 Y83.337 E2.11175
G1 X290.994 Y83.454 E2.16726
G1 X291.485 Y83.672 E2.22321
G1 X291.928 Y83.982 E2.27960
G1 X292.347 Y84.419 E2.34269
G1 X292.628 Y84.957 E2.40597
G1 X292.789 Y85.502 E2.46516
G1 X292.829 Y86.104 E2.52807
G1 X292.723 Y86.660 E2.58700
G1 X292.534 Y87.142 E2.64101
G1 X292.261 Y87.578 E2.69459
G1 X291.996 Y87.864 E2.73517
G1 X291.355 Y87.327 F7800.000
G1 F1800.000
G1 X291.075 Y87.534 E2.77147
G1 X290.766 Y87.683 E2.80727
G1 X290.439 Y87.772 E2.84258
G1 X290.105 Y87.797 E2.87741
G1 X289.778 Y87.761 E2.91176
G1 X289.476 Y87.668 E2.94464
G1 X289.205 Y87.540 E2.97591
G1 X288.942 Y87.371 E3.00852
G1 X288.704 Y87.146 E3.04264
G1 X288.514 Y86.879 E3.07675
G1 X288.378 Y86.581 E3.11087
G1 X288.301 Y86.263 E3.14499
G1 X288.286 Y85.936 E3.17910
G1 X288.333 Y85.612 E3.21322
G1 X288.437 Y85.312 E3.24636
G1 X288.582 Y85.037 E3.27877
G1 X288.750 Y84.798 E3.30922
G1 X288.997 Y84.553 E3.34551
G1 X289.316 Y84.348 E3.38501
G1 X289.650 Y84.221 E3.42223
G1 X290.006 Y84.160 E3.45990
G1 X290.370 Y84.170 E3.49783
G1 X290.730 Y84.251 E3.53630
G1 X291.072 Y84.403 E3.57523
G1 X291.381 Y84.620 E3.61464
G1 X291.661 Y84.912 E3.65684
G1 X291.850 Y85.272 E3.69920
G1 X291.961 Y85.650 E3.74025
G1 X291.988 Y86.053 E3.78238
G1 X291.917 Y86.427 E3.82207
G1 X291.785 Y86.765 E3.85982
G1 X291.595 Y87.068 E3.89710
G1 X291.436 Y87.239 E3.92137
G1 X291.427 Y87.667 F7800.000
G1 E2.92137 F3000.00000
G92 E0
G1 X182.829 Y86.104 F7800.000
G1 E1.00000 F3000.00000
G1 F1800.000
G1 X182.723 Y86.660 E1.05894
G1 X182.534 Y87.142 E1.11294
G1 X182.261 Y87.578 E1.16652
G1 X181.915 Y87.952 E1.21961
G1 X181.509 Y88.252 E1.27222
G1 X181.059 Y88.470 E1.32434
G1 X180.581 Y88.599 E1.37598
G1 X180.091 Y88.636 E1.42714
G1 X179.608 Y88.583 E1.47783
G1 X179.173 Y88.449 E1.52521
G1 X178.799 Y88.272 E1.56834
G1 X178.424 Y88.032 E1.61481
G1 X178.071 Y87.696 E1.66560
G1 X177.788 Y87.299 E1.71640
G1 X177.585 Y86.856 E1.76719
G1 X177.470 Y86.382 E1.81799
G1 X177.447 Y85.896 E1.86878
G1 X177.517 Y85.413 E1.91958
G1 X177.669 Y84.978 E1.96758
G1 X177.867 Y84.601 E2.01203
G1 X178.109 Y84.256 E2.05586
G1 X178.472 Y83.897 E2.10913
G1 X178.937 Y83.598 E2.16678
G1 X179.427 Y83.411 E2.22144
G1 X179.948 Y83.322 E2.27649
G1 X180.474 Y83.337 E2.33136
G1 X180.994 Y83.454 E2.38687
