; generated by PrusaSlicer 2.2.0+ on 2020-10-19 at 18:28:07 UTC

; 

; external perimeters extrusion width = 0.90mm
; perimeters extrusion width = 0.90mm
; infill extrusion width = 0.90mm
; solid infill extrusion width = 0.90mm
; top infill extrusion width = 0.80mm

M107
G90 ; use absolute coordinates

M140 S60 ; set bed temp
M190 S60 ; wait for bed temp

G28 ; home all axes
G29; level bed
M420 S1 Z10 V1; enable bed leveling
G1 X50 Y50 Z50 F5000

M104 S225 ; set extruder temp
M109 S225 ; wait for extruder temp


G92 E0                ; Reset extruder

G1 Y0 X-1 Z0.4 F5000 ; move outside print area
G1 Y60 E9 F500 ; start purge line
G1 Y100 E12.5 F500 ; finish purge line



G92 E0                ; Reset extruder

G1 E-1 F1400          ; Retract 1mm filament
G21 ; set units to millimeters
G90 ; use absolute coordinates
M82 ; use absolute distances for extrusion
G92 E0
; Filament gcode
M572 D0 S0.07 ; Filament-specific Linear Advance or Pressure Advance
G1 Z0.200 F7800.000
G1 E-1.00000 F3000.00000
G92 E0
G1 X154.793 Y71.738 F7800.000
G1 E1.00000 F3000.00000
G1 F1800.000
G1 X155.413 Y70.624 E1.09085
G1 X156.208 Y69.628 E1.18171
G1 X157.156 Y68.775 E1.27256
G1 X158.238 Y68.088 E1.36390
G1 X159.418 Y67.589 E1.45524
G1 X160.658 Y67.294 E1.54609
G1 X161.800 Y67.206 E1.62768
G1 X200.087 Y67.206 E4.35626
G1 X201.560 Y67.349 E4.46172
G1 X202.972 Y67.768 E4.56670
G1 X204.284 Y68.452 E4.67216
G1 X205.437 Y69.369 E4.77714
G1 X206.398 Y70.494 E4.88261
G1 X207.124 Y71.776 E4.98758
G1 X207.595 Y73.179 E5.09305
G1 X207.789 Y74.646 E5.19851
G1 X207.761 Y283.899 E20.11126
G1 X207.556 Y285.081 E20.19675
G1 X207.174 Y286.211 E20.28175
G1 X206.618 Y287.274 E20.36725
G1 X205.909 Y288.233 E20.45225
G1 X205.060 Y289.071 E20.53725
G1 X204.086 Y289.772 E20.62274
G1 X203.022 Y290.311 E20.70775
G1 X201.881 Y290.681 E20.79324
G1 X200.997 Y290.839 E20.85726
G1 X200.100 Y290.894 E20.92129
G1 X182.025 Y290.894 E22.20943
G1 X179.244 Y290.750 E22.40791
G1 X175.876 Y290.190 E22.65122
G1 X173.389 Y289.510 E22.83496
G1 X170.663 Y288.458 E23.04315
G1 X168.122 Y287.163 E23.24645
G1 X165.918 Y285.746 E23.43313
G1 X163.087 Y283.449 E23.69301
G1 X161.263 Y281.607 E23.87773
G1 X159.448 Y279.362 E24.08348
G1 X157.874 Y276.942 E24.28922
G1 X156.680 Y274.626 E24.47492
G1 X155.378 Y271.242 E24.73334
G1 X154.711 Y268.708 E24.92002
G1 X154.268 Y265.925 E25.12088
G1 X154.106 Y262.926 E25.33492
G1 X154.139 Y74.201 E38.78471
G1 X154.365 Y72.939 E38.87605
G1 X154.752 Y71.851 E38.95835
G1 X155.558 Y72.140 F7800.000
G1 F1800.000
G1 X156.143 Y71.075 E39.04495
G1 X156.865 Y70.180 E39.12692
G1 X157.722 Y69.422 E39.20843
G1 X158.699 Y68.815 E39.29040
G1 X159.763 Y68.379 E39.37237
G1 X160.885 Y68.127 E39.45434
G1 X161.807 Y68.063 E39.52022
G1 X200.086 Y68.063 E42.24823
G1 X201.398 Y68.191 E42.34214
G1 X202.661 Y68.567 E42.43605
G1 X203.823 Y69.175 E42.52950
G1 X204.853 Y69.997 E42.62341
G1 X205.706 Y71.000 E42.71732
G1 X206.352 Y72.149 E42.81122
G1 X206.765 Y73.394 E42.90467
G1 X206.934 Y74.700 E42.99858
G1 X206.907 Y283.820 E57.90176
G1 X206.722 Y284.883 E57.97868
G1 X206.373 Y285.904 E58.05559
G1 X205.867 Y286.858 E58.13251
G1 X205.219 Y287.720 E58.20942
G1 X204.443 Y288.470 E58.28634
G1 X203.559 Y289.089 E58.36325
G1 X202.588 Y289.562 E58.44017
G1 X201.556 Y289.876 E58.51708
G1 X200.086 Y290.037 E58.62246
G1 X182.035 Y290.037 E59.90892
G1 X179.326 Y289.897 E60.10222
G1 X176.099 Y289.362 E60.33531
G1 X173.660 Y288.697 E60.51547
G1 X171.018 Y287.678 E60.71729
G1 X168.547 Y286.419 E60.91497
G1 X166.394 Y285.033 E61.09743
G1 X163.688 Y282.838 E61.34569
G1 X161.904 Y281.038 E61.52631
G1 X160.140 Y278.856 E61.72629
G1 X158.614 Y276.509 E61.92581
G1 X157.447 Y274.245 E62.10735
G1 X156.202 Y271.005 E62.35469
G1 X155.551 Y268.536 E62.53669
G1 X155.117 Y265.809 E62.73345
G1 X154.963 Y262.923 E62.93941
G1 X154.993 Y74.280 E76.38332
G1 X155.194 Y73.155 E76.46483
G1 X155.517 Y72.253 E76.53309
G1 E75.53309 F3000.00000
G92 E0
G1 X187.567 Y255.027 F7800.000
G1 E1.00000 F3000.00000
G1 F1800.000
G1 X187.567 Y244.013 E1.78494
G1 X180.265 Y244.013 E2.30533
G1 X180.267 Y191.527 E6.04581
G1 X187.567 Y191.527 E6.56608
G1 X187.567 Y180.513 E7.35102
G1 X180.265 Y180.513 E7.87141
G1 X180.267 Y128.027 E11.61189
G1 X188.251 Y128.027 E12.18094
G1 X188.251 Y117.013 E12.96588
G1 X180.263 Y117.013 E13.53518
G1 X180.258 Y112.342 E13.86808
G1 X189.772 Y102.827 E14.82703
G1 X198.773 Y102.827 E15.46846
G1 X198.773 Y269.213 E27.32619
G1 X189.772 Y269.213 E27.96763
G1 X180.258 Y259.698 E28.92657
G1 X180.263 Y255.027 E29.25947
G1 X187.447 Y255.027 E29.77143
G1 X186.710 Y254.170 F7800.000
G1 F1800.000
G1 X186.710 Y244.870 E30.43421
G1 X179.408 Y244.870 E30.95462
G1 X179.421 Y198.860 E34.23359
G1 X179.408 Y190.670 E34.81726
G1 X186.710 Y190.670 E35.33763
G1 X186.710 Y181.370 E36.00041
G1 X179.408 Y181.370 E36.52082
G1 X179.421 Y135.360 E39.79979
G1 X179.408 Y127.170 E40.38346
G1 X187.394 Y127.170 E40.95262
G1 X187.394 Y117.870 E41.61540
G1 X179.407 Y117.870 E42.18462
G1 X179.400 Y111.987 E42.60387
G1 X189.417 Y101.970 E43.61346
G1 X199.630 Y101.970 E44.34128
G1 X199.630 Y270.070 E56.32117
G1 X189.417 Y270.070 E57.04899
G1 X179.400 Y260.053 E58.05858
G1 X179.407 Y254.170 E58.47783
G1 X186.590 Y254.170 E58.98972
G1 X187.490 Y253.991 F7800.000
G1 E57.98972 F3000.00000
G92 E0
G1 X180.516 Y259.047 F7800.000
G1 E1.00000 F3000.00000
G1 F1800.000
G1 X190.039 Y268.570 E1.96046
G1 X191.252 Y268.570 E2.04695
G1 X180.902 Y258.220 E3.09073
G1 X180.904 Y257.009 E3.17712
G1 X192.465 Y268.570 E4.34308
G1 X193.678 Y268.570 E4.42958
G1 X180.905 Y255.798 E5.71771
G1 X180.905 Y255.670 E5.72682
G1 X181.990 Y255.670 E5.80420
G1 X194.891 Y268.570 E7.10521
G1 X196.103 Y268.570 E7.19170
G1 X183.203 Y255.670 E8.49271
G1 X184.416 Y255.670 E8.57920
G1 X197.316 Y268.570 E9.88021
G1 X198.130 Y268.570 E9.93825
G1 X198.130 Y268.171 E9.96671
G1 X185.629 Y255.670 E11.22747
G1 X186.842 Y255.670 E11.31396
G1 X198.130 Y266.958 E12.45240
G1 X198.130 Y265.745 E12.53889
G1 X188.055 Y255.670 E13.55501
G1 X188.210 Y255.670 E13.56606
G1 X188.210 Y254.612 E13.64151
G1 X198.130 Y264.532 E14.64199
G1 X198.130 Y263.320 E14.72848
G1 X188.210 Y253.399 E15.72897
G1 X188.210 Y252.186 E15.81546
G1 X198.130 Y262.107 E16.81595
G1 X198.130 Y260.894 E16.90244
G1 X188.210 Y250.973 E17.90293
G1 X188.210 Y249.760 E17.98942
G1 X198.130 Y259.681 E18.98991
G1 X198.130 Y258.468 E19.07640
G1 X188.210 Y248.548 E20.07689
G1 X188.210 Y247.335 E20.16338
G1 X198.130 Y257.255 E21.16387
G1 X198.130 Y256.042 E21.25036
G1 X188.210 Y246.122 E22.25085
G1 X188.210 Y244.909 E22.33734
G1 X198.130 Y254.829 E23.33783
G1 X198.130 Y253.616 E23.42432
G1 X180.908 Y236.394 E25.16120
G1 X180.908 Y235.181 E25.24769
G1 X198.130 Y252.404 E26.98457
G1 X198.130 Y251.191 E27.07106
G1 X180.908 Y233.969 E28.80793
G1 X180.908 Y232.756 E28.89442
G1 X198.130 Y249.978 E30.63129
G1 X198.130 Y248.765 E30.71778
G1 X180.908 Y231.543 E32.45465
G1 X180.908 Y230.330 E32.54114
G1 X198.130 Y247.552 E34.27800
G1 X198.130 Y246.339 E34.36449
G1 X180.908 Y229.117 E36.10135
G1 X180.908 Y227.904 E36.18784
G1 X198.130 Y245.126 E37.92469
G1 X198.130 Y243.913 E38.01118
G1 X180.908 Y226.692 E39.74803
G1 X180.908 Y225.479 E39.83452
G1 X198.130 Y242.701 E41.57137
G1 X198.130 Y241.488 E41.65786
G1 X180.908 Y224.266 E43.39470
G1 X180.908 Y223.053 E43.48119
G1 X198.130 Y240.275 E45.21803
G1 X198.130 Y239.062 E45.30453
G1 X180.908 Y221.840 E47.04136
G1 X180.908 Y220.627 E47.12785
G1 X198.130 Y237.849 E48.86468
G1 X198.130 Y236.636 E48.95117
G1 X180.909 Y219.415 E50.68800
G1 X180.909 Y218.202 E50.77449
G1 X198.130 Y235.423 E52.51131
G1 X198.130 Y234.210 E52.59781
G1 X180.909 Y216.989 E54.33462
G1 X180.909 Y215.776 E54.42112
G1 X198.130 Y232.998 E56.15793
G1 X198.130 Y231.785 E56.24442
G1 X180.909 Y214.563 E57.98124
G1 X180.909 Y213.350 E58.06773
G1 X198.130 Y230.572 E59.80453
G1 X198.130 Y229.359 E59.89103
G1 X180.909 Y212.137 E61.62783
G1 X180.909 Y210.925 E61.71432
G1 X198.130 Y228.146 E63.45112
G1 X198.130 Y226.933 E63.53762
G1 X180.909 Y209.712 E65.27441
G1 X180.909 Y208.499 E65.36090
G1 X198.130 Y225.720 E67.09770
G1 X198.130 Y224.507 E67.18419
G1 X180.909 Y207.286 E68.92098
G1 X180.909 Y206.073 E69.00747
G1 X198.130 Y223.294 E70.74425
G1 X198.130 Y222.082 E70.83075
G1 X180.909 Y204.860 E72.56753
G1 X180.909 Y203.648 E72.65402
G1 X198.130 Y220.869 E74.39080
G1 X198.130 Y219.656 E74.47729
G1 X180.909 Y202.435 E76.21406
G1 X180.909 Y201.222 E76.30056
G1 X198.130 Y218.443 E78.03732
G1 X198.130 Y217.230 E78.12382
G1 X180.909 Y200.009 E79.86058
G1 X180.909 Y198.796 E79.94708
G1 X198.130 Y216.017 E81.68384
G1 X198.130 Y214.804 E81.77033
G1 X180.909 Y197.583 E83.50709
G1 X180.909 Y196.370 E83.59358
G1 X198.130 Y213.591 E85.33034
G1 X198.130 Y212.379 E85.41683
G1 X180.909 Y195.158 E87.15358
G1 X180.909 Y193.945 E87.24007
G1 X198.130 Y211.166 E88.97682
G1 X198.130 Y209.953 E89.06331
G1 X180.909 Y192.732 E90.80006
G1 X180.909 Y192.170 E90.84014
G1 X181.560 Y192.170 E90.88655
G1 X198.130 Y208.740 E92.55766
G1 X198.130 Y207.527 E92.64415
G1 X182.773 Y192.170 E94.19294
G1 X183.986 Y192.170 E94.27944
G1 X198.130 Y206.314 E95.70591
G1 X198.130 Y205.101 E95.79240
G1 X185.199 Y192.170 E97.09655
G1 X186.412 Y192.170 E97.18304
G1 X198.130 Y203.888 E98.36487
G1 X198.130 Y202.675 E98.45136
G1 X187.625 Y192.170 E99.51087
G1 X188.210 Y192.170 E99.55261
G1 X188.210 Y191.542 E99.59737
G1 X198.130 Y201.463 E100.59785
G1 X198.130 Y200.250 E100.68435
G1 X188.210 Y190.329 E101.68483
G1 X188.210 Y189.116 E101.77132
G1 X198.130 Y199.037 E102.77181
G1 X198.130 Y197.824 E102.85830
G1 X188.210 Y187.904 E103.85879
G1 X188.210 Y186.691 E103.94528
G1 X198.130 Y196.611 E104.94577
G1 X198.130 Y195.398 E105.03226
G1 X188.210 Y185.478 E106.03275
G1 X188.210 Y184.265 E106.11924
G1 X198.130 Y194.185 E107.11973
G1 X198.130 Y192.972 E107.20622
G1 X188.210 Y183.052 E108.20671
G1 X188.210 Y181.839 E108.29320
G1 X198.516 Y192.145 E109.33259
G1 E108.33259 F3000.00000
G92 E0
G1 X181.775 Y180.256 F7800.000
G1 E1.00000 F3000.00000
G1 F1800.000
G1 X180.908 Y179.389 E1.08745
G1 X180.908 Y178.176 E1.17394
G1 X182.602 Y179.870 E1.34480
G1 X183.815 Y179.870 E1.43130
G1 X180.908 Y176.963 E1.72448
G1 X180.908 Y175.750 E1.81097
G1 X185.028 Y179.870 E2.22647
G1 X186.241 Y179.870 E2.31296
G1 X180.908 Y174.537 E2.85078
G1 X180.908 Y173.325 E2.93727
G1 X198.130 Y190.547 E4.67415
G1 X198.130 Y189.334 E4.76065
G1 X180.908 Y172.112 E6.49752
G1 X180.908 Y170.899 E6.58401
G1 X198.130 Y188.121 E8.32089
G1 X198.130 Y186.908 E8.40738
G1 X180.908 Y169.686 E10.14425
G1 X180.908 Y168.473 E10.23074
G1 X198.130 Y185.695 E11.96760
G1 X198.130 Y184.482 E12.05410
G1 X180.908 Y167.260 E13.79096
G1 X180.908 Y166.047 E13.87745
G1 X198.130 Y183.269 E15.61431
G1 X198.130 Y182.057 E15.70080
G1 X180.908 Y164.835 E17.43765
G1 X180.908 Y163.622 E17.52414
G1 X198.130 Y180.844 E19.26099
G1 X198.130 Y179.631 E19.34749
G1 X180.908 Y162.409 E21.08433
G1 X180.908 Y161.196 E21.17082
G1 X198.130 Y178.418 E22.90767
G1 X198.130 Y177.205 E22.99416
G1 X180.908 Y159.983 E24.73100
G1 X180.908 Y158.770 E24.81749
G1 X198.130 Y175.992 E26.55432
G1 X198.130 Y174.779 E26.64082
G1 X180.908 Y157.558 E28.37765
G1 X180.908 Y156.345 E28.46414
G1 X198.130 Y173.566 E30.20097
G1 X198.130 Y172.353 E30.28746
G1 X180.909 Y155.132 E32.02429
G1 X180.909 Y153.919 E32.11078
G1 X198.130 Y171.141 E33.84760
G1 X198.130 Y169.928 E33.93409
G1 X180.909 Y152.706 E35.67091
G1 X180.909 Y151.493 E35.75740
G1 X198.130 Y168.715 E37.49421
G1 X198.130 Y167.502 E37.58070
G1 X180.909 Y150.280 E39.31751
G1 X180.909 Y149.068 E39.40400
G1 X198.130 Y166.289 E41.14081
G1 X198.130 Y165.076 E41.22730
G1 X180.909 Y147.855 E42.96410
G1 X180.909 Y146.642 E43.05059
G1 X198.130 Y163.863 E44.78739
G1 X198.130 Y162.650 E44.87388
G1 X180.909 Y145.429 E46.61068
G1 X180.909 Y144.216 E46.69717
G1 X198.130 Y161.438 E48.43396
G1 X198.130 Y160.225 E48.52045
G1 X180.909 Y143.003 E50.25724
G1 X180.909 Y141.791 E50.34373
G1 X198.130 Y159.012 E52.08051
G1 X198.130 Y157.799 E52.16701
G1 X180.909 Y140.578 E53.90378
G1 X180.909 Y139.365 E53.99028
G1 X198.130 Y156.586 E55.72705
G1 X198.130 Y155.373 E55.81354
G1 X180.909 Y138.152 E57.55032
G1 X180.909 Y136.939 E57.63681
G1 X198.130 Y154.160 E59.37357
G1 X198.130 Y152.947 E59.46007
G1 X180.909 Y135.726 E61.19683
G1 X180.909 Y134.514 E61.28332
G1 X198.130 Y151.735 E63.02008
G1 X198.130 Y150.522 E63.10658
G1 X180.909 Y133.301 E64.84333
G1 X180.909 Y132.088 E64.92982
G1 X198.130 Y149.309 E66.66658
G1 X198.130 Y148.096 E66.75307
G1 X180.909 Y130.875 E68.48982
G1 X180.909 Y129.662 E68.57631
G1 X198.130 Y146.883 E70.31305
G1 X198.130 Y145.670 E70.39955
G1 X181.130 Y128.670 E72.11405
G1 X182.343 Y128.670 E72.20054
G1 X198.130 Y144.457 E73.79272
G1 X198.130 Y143.244 E73.87921
G1 X183.556 Y128.670 E75.34907
G1 X184.769 Y128.670 E75.43556
G1 X198.130 Y142.031 E76.78310
G1 X198.130 Y140.819 E76.86959
G1 X185.981 Y128.670 E78.09481
G1 X187.194 Y128.670 E78.18130
G1 X198.130 Y139.606 E79.28420
G1 X198.130 Y138.393 E79.37069
G1 X188.407 Y128.670 E80.35127
G1 X188.894 Y128.670 E80.38600
G1 X188.894 Y127.944 E80.43776
G1 X198.130 Y137.180 E81.36921
G1 X198.130 Y135.967 E81.45570
G1 X188.894 Y126.731 E82.38715
G1 X188.894 Y125.518 E82.47365
G1 X198.130 Y134.754 E83.40510
G1 X198.130 Y133.541 E83.49159
G1 X188.894 Y124.305 E84.42304
G1 X188.894 Y123.093 E84.50954
G1 X198.130 Y132.328 E85.44099
G1 X198.130 Y131.116 E85.52748
G1 X188.894 Y121.880 E86.45893
G1 X188.894 Y120.667 E86.54542
G1 X198.130 Y129.903 E87.47687
G1 X198.130 Y128.690 E87.56337
G1 X188.894 Y119.454 E88.49482
G1 X188.894 Y118.241 E88.58131
G1 X198.516 Y127.863 E89.55166
G1 E88.55166 F3000.00000
G92 E0
G1 X180.519 Y115.930 F7800.000
G1 E1.00000 F3000.00000
G1 F1800.000
G1 X180.959 Y116.370 E1.04437
G1 X182.172 Y116.370 E1.13086
G1 X180.904 Y115.102 E1.25875
G1 X180.902 Y113.888 E1.34535
G1 X183.385 Y116.370 E1.59570
G1 X184.598 Y116.370 E1.68219
G1 X180.901 Y112.673 E2.05501
G1 X180.901 Y112.608 E2.05970
G1 X181.474 Y112.034 E2.11755
G1 X185.810 Y116.370 E2.55484
G1 X187.023 Y116.370 E2.64134
G1 X182.081 Y111.428 E3.13980
G1 X182.687 Y110.821 E3.20096
G1 X198.130 Y126.264 E4.75839
G1 X198.130 Y125.051 E4.84488
G1 X183.294 Y110.215 E6.34115
G1 X183.900 Y109.608 E6.40231
G1 X198.130 Y123.838 E7.83742
G1 X198.130 Y122.625 E7.92392
G1 X184.507 Y109.002 E9.29787
G1 X185.113 Y108.395 E9.35903
G1 X198.130 Y121.412 E10.67182
G1 X198.130 Y120.200 E10.75831
G1 X185.720 Y107.789 E12.00994
G1 X186.326 Y107.183 E12.07110
G1 X198.130 Y118.987 E13.26157
G1 X198.130 Y117.774 E13.34806
G1 X186.932 Y106.576 E14.47737
G1 X187.539 Y105.970 E14.53853
G1 X198.130 Y116.561 E15.60668
G1 X198.130 Y115.348 E15.69318
G1 X188.145 Y105.363 E16.70016
G1 X188.752 Y104.757 E16.76132
G1 X198.130 Y114.135 E17.70715
G1 X198.130 Y112.922 E17.79365
G1 X189.358 Y104.150 E18.67831
G1 X189.965 Y103.544 E18.73947
G1 X198.130 Y111.709 E19.56298
G1 X198.130 Y110.497 E19.64947
G1 X191.103 Y103.470 E20.35813
G1 X192.316 Y103.470 E20.44462
G1 X198.130 Y109.284 E21.03096
G1 X198.130 Y108.071 E21.11745
G1 X193.529 Y103.470 E21.58146
G1 X194.742 Y103.470 E21.66796
G1 X198.130 Y106.858 E22.00965
G1 X198.130 Y105.645 E22.09614
G1 X195.955 Y103.470 E22.31551
G1 X197.168 Y103.470 E22.40201
G1 X198.516 Y104.818 E22.53795
G1 E21.53795 F3000.00000
G92 E0
G1 X180.522 Y242.073 F7800.000
G1 E1.00000 F3000.00000
G1 F1800.000
G1 X181.819 Y243.370 E1.13083
G1 X183.032 Y243.370 E1.21733
G1 X180.908 Y241.246 E1.43158
G1 X180.908 Y240.033 E1.51807
G1 X184.245 Y243.370 E1.85464
G1 X185.458 Y243.370 E1.94113
G1 X180.908 Y238.820 E2.40002
G1 X180.908 Y237.607 E2.48651
G1 X187.057 Y243.756 E3.10661
G1 E2.10661 F3000.00000
G92 E0
G1 X176.724 Y250.513 F7800.000
G1 E1.00000 F3000.00000
G1 F1800.000
G1 X168.823 Y250.513 E1.56311
G1 X168.823 Y262.967 E2.45065
G1 X168.955 Y264.811 E2.58243
G1 X169.359 Y266.664 E2.71755
G1 X170.023 Y268.439 E2.85266
G1 X170.934 Y270.102 E2.98778
G1 X172.071 Y271.617 E3.12281
G1 X173.383 Y272.929 E3.25496
G1 X174.898 Y274.066 E3.38999
G1 X176.561 Y274.977 E3.52510
G1 X178.336 Y275.641 E3.66022
