; generated by PrusaSlicer 2.2.0+ on 2020-10-15 at 18:30:46 UTC

; 

; external perimeters extrusion width = 0.68mm
; perimeters extrusion width = 0.68mm
; infill extrusion width = 0.68mm
; solid infill extrusion width = 0.68mm
; top infill extrusion width = 0.60mm

M73 P0 R8
M201 X1250 Y1250 Z400 E5000 ; sets maximum accelerations, mm/sec^2
M203 X180 Y180 Z12 E80 ; sets maximum feedrates, mm/sec
M204 P1250 R1250 T1250 ; sets acceleration (P, T) and retract acceleration (R), mm/sec^2
M205 X6.00 Y6.00 Z0.20 E2.50 ; sets the jerk limits, mm/sec
M205 S0 T0 ; sets the minimum extruding and travel feed rate, mm/sec
M107
G28 ; home all axes
M420 S ; turn on manual mesh leveling
M117 Purge extruder
G92 E0 ; Reset extruder
M190 S80 ; Wait for bed final temp
M104 S240 ; Set extruder final temp
M109 S240 ; Wait for extruder final temp
G1 Z1.0 F3000 ; Move z up little to prevent scratching of the bed
G1 X2 Y20 Z0.3 F5000.0 ; Move to start-line position
G1 X2 Y200.0 Z0.3 F1500.0 E15 ; Draw 1st line
M73 P1 R8
G1 X3 Y200.0 Z0.3 F5000.0 ; Move to side a little
G1 X3 Y20 Z0.3 F1500.0 E30 ; Draw 2nd line
; G1 E27 F3000 ; Retract filament 3mm
G92 E0 ; Reset extruder
; Finish Purge Operation
G1 Z1.0 F3000 ; Move z up little to prevent scratching of the bed

; Set linear advance
M900 K0.04
G21 ; set units to millimeters
G90 ; use absolute coordinates
M83 ; use relative distances for extrusion
; Filament gcode
;BEFORE_LAYER_CHANGE
;G92 E0.0
;0.2


G1 E-1.20000 F2100.00000
G1 Z0.200 F9000.000
;AFTER_LAYER_CHANGE
;0.2
G1 X88.879 Y88.768
G1 E1.20000 F1800.00000
G1 F2100.000
G1 X90.166 Y87.581 E0.09204
G1 X91.630 Y86.449 E0.09725
G1 X93.066 Y85.534 E0.08953
G1 X94.148 Y84.956 E0.06444
G1 X95.666 Y84.296 E0.08700
G1 X97.314 Y83.761 E0.09105
G1 X98.891 Y83.416 E0.08488
G1 X100.078 Y83.256 E0.06290
G1 X101.706 Y83.175 E0.08571
G1 X104.311 Y83.384 E0.13732
G1 X134.000 Y87.837 E1.57787
G1 X135.007 Y88.041 E0.05400
G1 X137.208 Y88.773 E0.12188
G1 X138.408 Y89.348 E0.06997
G1 X139.611 Y90.066 E0.07361
G1 X140.762 Y90.902 E0.07476
G1 X141.775 Y91.778 E0.07040
G1 X143.466 Y93.595 E0.13042
G1 X144.708 Y95.299 E0.11083
G1 X145.978 Y97.499 E0.13352
G1 X147.156 Y100.195 E0.15461
G1 X147.871 Y102.370 E0.12037
G1 X148.550 Y105.264 E0.15620
G1 X148.892 Y107.562 E0.12211
G1 X149.097 Y110.630 E0.16163
G1 X149.022 Y113.783 E0.16576
G1 X148.678 Y116.811 E0.16014
G1 X148.241 Y119.054 E0.12015
G1 X147.425 Y121.930 E0.15709
G1 X146.395 Y124.513 E0.14618
G1 X145.300 Y126.612 E0.12443
G1 X144.006 Y128.569 E0.12326
G1 X142.540 Y130.320 E0.12005
G1 X140.825 Y131.909 E0.12286
G1 X139.019 Y133.170 E0.11577
G1 X137.516 Y133.957 E0.08918
G1 X135.650 Y134.645 E0.10454
G1 X133.578 Y135.079 E0.11125
G1 X102.690 Y136.731 E1.62572
G1 X101.031 Y136.751 E0.08723
G1 X99.328 Y136.597 E0.08986
G1 X97.496 Y136.230 E0.09818
G1 X95.704 Y135.659 E0.09886
G1 X93.867 Y134.839 E0.10575
G1 X92.210 Y133.878 E0.10065
G1 X90.189 Y132.377 E0.13234
G1 X88.719 Y131.015 E0.10532
G1 X87.378 Y129.523 E0.10545
G1 X86.287 Y128.090 E0.09464
G1 X85.184 Y126.378 E0.10703
G1 X83.649 Y123.367 E0.17765
G1 X82.853 Y121.350 E0.11392
G1 X82.218 Y119.351 E0.11026
G1 X81.440 Y115.922 E0.18480
G1 X81.140 Y113.797 E0.11279
G1 X80.972 Y111.658 E0.11278
G1 X80.983 Y108.130 E0.18540
G1 X81.158 Y106.020 E0.11130
G1 X81.473 Y103.846 E0.11548
G1 X81.922 Y101.713 E0.11454
G1 X82.497 Y99.649 E0.11263
G1 X83.694 Y96.464 E0.17879
G1 X84.586 Y94.627 E0.10737
G1 X85.536 Y92.985 E0.09970
G1 X86.535 Y91.511 E0.09354
G1 X87.661 Y90.086 E0.09550
G1 X88.817 Y88.834 E0.08957
G1 X89.281 Y89.262 F9000.000
G1 F2100.000
G1 X90.567 Y88.070 E0.09214
G1 X91.914 Y87.023 E0.08967
G1 X92.884 Y86.379 E0.06120
G1 X94.327 Y85.572 E0.08688
G1 X95.886 Y84.888 E0.08951
G1 X97.480 Y84.371 E0.08809
G1 X99.007 Y84.037 E0.08214
G1 X100.134 Y83.886 E0.05974
G1 X101.708 Y83.807 E0.08285
G1 X104.221 Y84.010 E0.13248
G1 X134.831 Y88.648 E1.62715
G1 X136.944 Y89.348 E0.11702
G1 X138.105 Y89.903 E0.06763
G1 X139.253 Y90.588 E0.07025
G1 X140.369 Y91.398 E0.07246
G1 X141.345 Y92.241 E0.06778
G1 X142.946 Y93.957 E0.12338
G1 X144.171 Y95.634 E0.10912
G1 X145.412 Y97.782 E0.13039
G1 X146.567 Y100.424 E0.15154
G1 X147.261 Y102.535 E0.11681
G1 X147.930 Y105.386 E0.15393
G1 X148.263 Y107.622 E0.11881
G1 X148.465 Y110.642 E0.15907
G1 X148.393 Y113.720 E0.16179
G1 X148.053 Y116.719 E0.15864
G1 X147.627 Y118.902 E0.11689
G1 X146.826 Y121.726 E0.15431
G1 X145.828 Y124.232 E0.14173
G1 X144.758 Y126.286 E0.12174
G1 X143.511 Y128.176 E0.11900
G1 X142.093 Y129.872 E0.11620
G1 X140.466 Y131.387 E0.11683
G1 X139.078 Y132.391 E0.09004
G1 X137.273 Y133.373 E0.10803
G1 X135.478 Y134.037 E0.10056
G1 X133.489 Y134.453 E0.10684
G1 X102.658 Y136.100 E1.62272
G1 X101.072 Y136.120 E0.08332
G1 X99.428 Y135.973 E0.08677
G1 X97.665 Y135.621 E0.09449
G1 X95.932 Y135.069 E0.09556
G1 X94.166 Y134.283 E0.10162
G1 X92.565 Y133.355 E0.09724
G1 X90.599 Y131.895 E0.12873
G1 X89.173 Y130.576 E0.10209
G1 X87.898 Y129.161 E0.10009
G1 X86.808 Y127.732 E0.09447
G1 X85.727 Y126.055 E0.10488
G1 X84.229 Y123.114 E0.17346
G1 X83.447 Y121.134 E0.11190
G1 X82.824 Y119.171 E0.10822
G1 X82.064 Y115.824 E0.18039
G1 X81.768 Y113.729 E0.11118
G1 X81.603 Y111.620 E0.11120
G1 X81.613 Y108.174 E0.18110
G1 X81.786 Y106.093 E0.10977
G1 X82.096 Y103.958 E0.11340
G1 X82.536 Y101.864 E0.11245
G1 X83.093 Y99.862 E0.10922
G1 X84.269 Y96.728 E0.17590
G1 X85.144 Y94.923 E0.10546
G1 X86.067 Y93.328 E0.09687
G1 X87.045 Y91.885 E0.09158
G1 X88.137 Y90.501 E0.09267
G1 X89.220 Y89.328 E0.08390
G1 X89.684 Y89.757 F9000.000
G1 F2100.000
G1 X90.964 Y88.562 E0.09202
G1 X93.202 Y86.925 E0.14572
G1 X94.605 Y86.140 E0.08449
G1 X96.107 Y85.480 E0.08623
G1 X97.647 Y84.981 E0.08509
G1 X99.123 Y84.658 E0.07939
G1 X100.190 Y84.515 E0.05660
G1 X101.710 Y84.440 E0.07998
G1 X104.131 Y84.636 E0.12763
G1 X134.663 Y89.258 E1.62297
G1 X136.688 Y89.925 E0.11208
G1 X137.803 Y90.458 E0.06494
G1 X138.902 Y91.113 E0.06725
G1 X139.976 Y91.893 E0.06979
G1 X140.910 Y92.700 E0.06486
G1 X142.429 Y94.324 E0.11687
G1 X143.638 Y95.972 E0.10740
G1 X144.844 Y98.060 E0.12673
G1 X145.978 Y100.653 E0.14877
G1 X146.653 Y102.707 E0.11360
G1 X147.309 Y105.504 E0.15100
G1 X147.634 Y107.684 E0.11586
G1 X147.833 Y110.654 E0.15648
G1 X147.763 Y113.664 E0.15823
G1 X147.429 Y116.615 E0.15609
G1 X147.028 Y118.693 E0.11121
G1 X146.250 Y121.456 E0.15088
G1 X145.486 Y123.450 E0.11221
G1 X144.255 Y125.894 E0.14385
G1 X143.056 Y127.727 E0.11510
G1 X141.650 Y129.421 E0.11574
G1 X140.098 Y130.871 E0.11159
G1 X138.756 Y131.847 E0.08720
G1 X137.028 Y132.791 E0.10350
G1 X135.312 Y133.427 E0.09621
G1 X133.406 Y133.826 E0.10235
G1 X102.625 Y135.469 E1.62007
G1 X101.112 Y135.489 E0.07952
G1 X99.527 Y135.349 E0.08364
G1 X97.833 Y135.011 E0.09079
G1 X96.160 Y134.480 E0.09223
G1 X94.465 Y133.726 E0.09752
G1 X92.993 Y132.880 E0.08921
G1 X91.488 Y131.805 E0.09721
G1 X89.690 Y130.198 E0.12676
G1 X88.416 Y128.796 E0.09957
G1 X87.328 Y127.374 E0.09408
G1 X86.270 Y125.731 E0.10272
G1 X84.811 Y122.866 E0.16896
G1 X84.043 Y120.923 E0.10984
G1 X83.430 Y118.991 E0.10651
G1 X82.689 Y115.725 E0.17602
G1 X82.396 Y113.656 E0.10985
G1 X82.234 Y111.582 E0.10929
G1 X82.244 Y108.218 E0.17685
G1 X82.414 Y106.165 E0.10823
G1 X82.717 Y104.075 E0.11102
G1 X83.150 Y102.015 E0.11066
G1 X83.690 Y100.072 E0.10596
G1 X84.841 Y96.997 E0.17257
G1 X85.703 Y95.219 E0.10383
G1 X86.599 Y93.670 E0.09408
G1 X87.555 Y92.258 E0.08960
G1 X88.618 Y90.912 E0.09018
G1 X89.623 Y89.823 E0.07789
G1 F7200.000
G1 X90.964 Y88.562 E-0.51001
G1 X92.800 Y87.220 E-0.62999
G1 E-0.06000 F2100.00000
G1 X124.997 Y105.759 F9000.000
G1 E1.20000 F1800.00000
G1 X125.449 Y104.900 E0.05100
G1 X125.966 Y104.099 E0.05009
G1 X126.551 Y103.360 E0.04956
G1 X127.199 Y102.698 E0.04869
G1 X127.899 Y102.126 E0.04751
G1 X128.492 Y101.736 E0.03729
G1 X129.276 Y101.333 E0.04632
G1 X130.103 Y101.033 E0.04627
G1 X130.958 Y100.847 E0.04599
G1 X131.729 Y100.787 E0.04061
G1 X132.213 Y100.796 E0.02546
G1 X132.612 Y100.833 E0.02106
G1 X133.339 Y100.968 E0.03886
G1 X133.927 Y101.141 E0.03222
G1 X134.308 Y101.287 E0.02143
G1 X134.983 Y101.614 E0.03944
G1 X135.517 Y101.939 E0.03282
G1 X135.851 Y102.175 E0.02150
G1 X136.447 Y102.668 E0.04065
G1 X136.905 Y103.119 E0.03381
G1 X137.186 Y103.431 E0.02204
G1 X137.687 Y104.064 E0.04245
G1 X138.267 Y104.964 E0.05628
G1 X138.661 Y105.714 E0.04451
G1 X139.002 Y106.501 E0.04508
G1 X139.364 Y107.563 E0.05897
G1 X139.583 Y108.420 E0.04652
G1 X139.791 Y109.610 E0.06345
G1 X139.882 Y110.560 E0.05020
G1 X139.908 Y111.513 E0.05009
G1 X139.870 Y112.465 E0.05005
G1 X139.769 Y113.408 E0.04987
G1 X139.605 Y114.338 E0.04960
G1 X139.381 Y115.238 E0.04875
G1 X139.240 Y115.696 E0.02520
G1 X138.983 Y116.407 E0.03974
G1 X138.616 Y117.236 E0.04767
G1 X138.190 Y118.025 E0.04712
G1 X137.708 Y118.765 E0.04639
G1 X137.170 Y119.448 E0.04569
G1 X136.579 Y120.069 E0.04508
G1 X135.939 Y120.617 E0.04425
G1 X135.380 Y121.007 E0.03585
G1 X135.006 Y121.229 E0.02287
G1 X134.318 Y121.564 E0.04020
G1 X133.605 Y121.816 E0.03975
G1 X133.211 Y121.918 E0.02138
G1 X132.603 Y122.027 E0.03250
G1 X131.840 Y122.076 E0.04017
G1 X131.078 Y122.029 E0.04010
G1 X130.468 Y121.922 E0.03257
G1 X130.073 Y121.820 E0.02143
G1 X129.359 Y121.567 E0.03980
G1 X128.665 Y121.228 E0.04059
G1 X128.126 Y120.897 E0.03327
G1 X127.787 Y120.655 E0.02186
G1 X127.185 Y120.151 E0.04130
G1 X126.622 Y119.577 E0.04225
G1 X126.198 Y119.069 E0.03475
G1 X125.942 Y118.725 E0.02255
G1 X125.491 Y118.031 E0.04353
G1 X124.993 Y117.096 E0.05563
G1 X124.610 Y116.190 E0.05173
G1 X124.358 Y115.447 E0.04121
G1 X124.102 Y114.474 E0.05287
G1 X123.919 Y113.478 E0.05323
G1 X123.842 Y112.849 E0.03330
G1 X123.794 Y112.221 E0.03315
G1 X123.771 Y111.426 E0.04180
G1 X123.793 Y110.630 E0.04182
G1 X123.841 Y110.001 E0.03319
G1 X123.919 Y109.370 E0.03336
G1 X124.103 Y108.378 E0.05306
G1 X124.300 Y107.611 E0.04163
G1 X124.614 Y106.666 E0.05230
G1 X124.962 Y105.842 E0.04705
G1 X125.569 Y106.029 F9000.000
G1 F1260.000
G1 X125.995 Y105.219 E0.04812
G1 X126.480 Y104.467 E0.04701
G1 X127.026 Y103.778 E0.04621
G1 X127.626 Y103.165 E0.04509
G1 X128.274 Y102.636 E0.04395
G1 X128.811 Y102.282 E0.03380
G1 X129.529 Y101.913 E0.04243
G1 X130.279 Y101.641 E0.04193
G1 X131.051 Y101.474 E0.04151
G1 X131.747 Y101.419 E0.03673
G1 X132.178 Y101.428 E0.02263
G1 X132.525 Y101.460 E0.01834
G1 X133.192 Y101.583 E0.03562
G1 X133.724 Y101.741 E0.02919
G1 X134.057 Y101.868 E0.01871
G1 X134.681 Y102.170 E0.03643
G1 X135.170 Y102.468 E0.03009
G1 X135.466 Y102.677 E0.01910
G1 X136.023 Y103.138 E0.03795
G1 X136.448 Y103.557 E0.03139
G1 X136.703 Y103.839 E0.01997
G1 X137.172 Y104.433 E0.03977
G1 X137.721 Y105.283 E0.05321
G1 X138.091 Y105.987 E0.04178
G1 X138.412 Y106.729 E0.04249
G1 X138.757 Y107.743 E0.05633
G1 X138.965 Y108.553 E0.04394
G1 X139.164 Y109.694 E0.06087
G1 X139.250 Y110.599 E0.04778
G1 X139.275 Y111.509 E0.04785
G1 X139.239 Y112.418 E0.04782
G1 X139.143 Y113.320 E0.04763
G1 X138.986 Y114.206 E0.04732
G1 X138.772 Y115.068 E0.04669
G1 X138.641 Y115.495 E0.02348
G1 X138.396 Y116.171 E0.03778
G1 X138.048 Y116.958 E0.04521
G1 X137.646 Y117.702 E0.04443
G1 X137.193 Y118.396 E0.04355
G1 X136.692 Y119.034 E0.04266
G1 X136.144 Y119.610 E0.04180
G1 X135.552 Y120.116 E0.04090
G1 X135.037 Y120.475 E0.03299
G1 X134.706 Y120.672 E0.02028
G1 X134.073 Y120.980 E0.03696
G1 X133.420 Y121.211 E0.03643
G1 X133.077 Y121.300 E0.01864
G1 X132.526 Y121.398 E0.02937
G1 X131.839 Y121.443 E0.03621
G1 X131.153 Y121.400 E0.03612
G1 X130.602 Y121.303 E0.02941
G1 X130.258 Y121.215 E0.01867
G1 X129.604 Y120.983 E0.03645
G1 X128.970 Y120.674 E0.03709
G1 X128.475 Y120.370 E0.03051
G1 X128.174 Y120.155 E0.01944
G1 X127.614 Y119.686 E0.03840
G1 X127.091 Y119.153 E0.03928
G1 X126.695 Y118.678 E0.03247
G1 X126.461 Y118.364 E0.02059
G1 X126.036 Y117.709 E0.04105
G1 X125.565 Y116.824 E0.05269
G1 X125.201 Y115.965 E0.04905
G1 X124.963 Y115.265 E0.03884
G1 X124.719 Y114.337 E0.05044
G1 X124.544 Y113.383 E0.05098
G1 X124.471 Y112.787 E0.03157
G1 X124.425 Y112.187 E0.03161
G1 X124.403 Y111.425 E0.04005
G1 X124.424 Y110.663 E0.04006
G1 X124.470 Y110.063 E0.03162
G1 X124.544 Y109.467 E0.03159
G1 X124.721 Y108.514 E0.05092
G1 X124.907 Y107.789 E0.03936
G1 X125.206 Y106.889 E0.04983
G1 X125.534 Y106.112 E0.04433
G1 X125.228 Y105.536 F9000.000
G1 F7200.000
G1 X125.995 Y105.219 E-0.27857
G1 X126.480 Y104.467 E-0.24782
G1 X127.026 Y103.778 E-0.24363
G1 X127.626 Y103.165 E-0.23769
G1 X127.996 Y102.863 E-0.13229
G1 E-0.06000 F2100.00000
G1 X123.236 Y105.468 F9000.000
G1 E1.20000 F1800.00000
G1 X123.393 Y104.818 E0.03515
G1 X123.786 Y103.529 E0.07085
G1 X124.001 Y102.926 E0.03363
G1 X124.493 Y101.739 E0.06755
G1 X125.047 Y100.631 E0.06510
G1 X125.646 Y99.637 E0.06099
G1 X126.174 Y98.896 E0.04780
G1 X126.434 Y98.570 E0.02192
G1 X127.010 Y97.926 E0.04543
G1 X127.287 Y97.652 E0.02051
G1 X127.903 Y97.115 E0.04293
G1 X128.192 Y96.895 E0.01910
G1 X128.828 Y96.480 E0.03991
G1 X129.481 Y96.143 E0.03859
G1 X129.780 Y96.018 E0.01706
G1 X130.463 Y95.799 E0.03767
G1 X130.795 Y95.725 E0.01790
G1 X131.478 Y95.637 E0.03617
G1 X132.102 Y95.634 E0.03280
G1 X132.470 Y95.663 E0.01943
G1 X133.078 Y95.770 E0.03244
G1 X133.725 Y95.960 E0.03545
G1 X134.011 Y96.070 E0.01606
G1 X134.644 Y96.370 E0.03684
G1 X134.926 Y96.529 E0.01702
G1 X135.538 Y96.934 E0.03857
G1 X135.811 Y97.143 E0.01807
G1 X136.391 Y97.649 E0.04046
G1 X136.654 Y97.909 E0.01944
G1 X137.059 Y98.351 E0.03145
G1 X137.649 Y99.092 E0.04981
G1 X138.014 Y99.617 E0.03362
G1 X138.364 Y100.176 E0.03462
G1 X138.865 Y101.086 E0.05460
G1 X139.169 Y101.716 E0.03681
G1 X139.457 Y102.378 E0.03794
G1 X139.725 Y103.064 E0.03868
G1 X139.971 Y103.772 E0.03939
G1 X140.195 Y104.500 E0.04004
G1 X140.397 Y105.246 E0.04064
G1 X140.576 Y106.009 E0.04118
G1 X140.731 Y106.787 E0.04167
G1 X140.862 Y107.577 E0.04209
G1 X140.968 Y108.378 E0.04246
G1 X141.048 Y109.179 E0.04232
G1 X141.103 Y109.986 E0.04253
G1 X141.133 Y110.798 E0.04267
G1 X141.119 Y112.424 E0.08547
G1 X141.075 Y113.234 E0.04266
G1 X140.916 Y114.840 E0.08479
G1 X140.661 Y116.410 E0.08360
G1 X140.500 Y117.176 E0.04117
G1 X140.315 Y117.927 E0.04066
G1 X140.108 Y118.661 E0.04007
G1 X139.879 Y119.376 E0.03942
G1 X139.629 Y120.068 E0.03871
G1 X139.359 Y120.733 E0.03771
G1 X138.913 Y121.692 E0.05557
G1 X138.684 Y122.130 E0.02600
G1 X138.178 Y122.993 E0.05258
G1 X137.633 Y123.790 E0.05072
G1 X137.362 Y124.143 E0.02340
G1 X136.768 Y124.829 E0.04768
G1 X136.144 Y125.437 E0.04580
G1 X135.845 Y125.692 E0.02067
G1 X135.174 Y126.182 E0.04364
G1 X134.860 Y126.377 E0.01943
G1 X134.293 Y126.672 E0.03362
G1 X134.035 Y126.784 E0.01478
G1 X133.458 Y126.986 E0.03213
G1 X132.873 Y127.128 E0.03164
G1 X132.609 Y127.172 E0.01407
G1 X132.006 Y127.225 E0.03177
G1 X131.743 Y127.227 E0.01385
G1 X131.143 Y127.187 E0.03162
G1 X130.869 Y127.147 E0.01452
G1 X130.594 Y127.092 E0.01477
G1 X130.100 Y126.956 E0.02691
G1 X129.717 Y126.817 E0.02141
G1 X129.119 Y126.541 E0.03461
G1 X128.743 Y126.330 E0.02269
G1 X128.365 Y126.086 E0.02366
G1 X127.992 Y125.813 E0.02424
G1 X127.626 Y125.513 E0.02486
G1 X127.268 Y125.187 E0.02550
G1 X126.576 Y124.454 E0.05295
G1 X126.245 Y124.050 E0.02747
G1 X125.930 Y123.630 E0.02760
G1 X125.317 Y122.697 E0.05868
G1 X124.758 Y121.680 E0.06096
G1 X124.463 Y121.061 E0.03608
G1 X124.183 Y120.407 E0.03737
G1 X123.924 Y119.729 E0.03813
G1 X123.686 Y119.030 E0.03885
G1 X123.469 Y118.310 E0.03951
G1 X123.273 Y117.572 E0.04011
G1 X123.100 Y116.819 E0.04065
G1 X122.821 Y115.272 E0.08261
G1 X122.716 Y114.483 E0.04184
G1 X122.577 Y112.883 E0.08436
G1 X122.544 Y112.077 E0.04240
G1 X122.551 Y110.463 E0.08485
G1 X122.592 Y109.664 E0.04203
G1 X122.727 Y108.235 E0.07544
G1 X122.939 Y106.832 E0.07459
G1 X123.070 Y106.161 E0.03594
G1 X123.215 Y105.556 E0.03270
G1 X122.622 Y105.321 F9000.000
G1 F1260.000
G1 X122.782 Y104.652 E0.03614
G1 X123.186 Y103.330 E0.07263
G1 X123.411 Y102.699 E0.03524
G1 X123.918 Y101.476 E0.06956
G1 X124.490 Y100.332 E0.06724
G1 X124.798 Y99.797 E0.03242
G1 X125.121 Y99.285 E0.03183
G1 X125.669 Y98.516 E0.04964
G1 X125.951 Y98.162 E0.02378
G1 X126.552 Y97.490 E0.04737
