; generated by PrusaSlicer 2.2.0+ on 2020-10-15 at 20:35:21 UTC

; 

; external perimeters extrusion width = 0.68mm
; perimeters extrusion width = 0.68mm
; infill extrusion width = 0.68mm
; solid infill extrusion width = 0.68mm
; top infill extrusion width = 0.60mm

M73 P0 R32
M201 X1250 Y1250 Z400 E5000 ; sets maximum accelerations, mm/sec^2
M203 X180 Y180 Z12 E80 ; sets maximum feedrates, mm/sec
M204 P1250 R1250 T1250 ; sets acceleration (P, T) and retract acceleration (R), mm/sec^2
M205 X6.00 Y6.00 Z0.20 E2.50 ; sets the jerk limits, mm/sec
M205 S0 T0 ; sets the minimum extruding and travel feed rate, mm/sec
M107
G28 ; home all axes
M420 S ; turn on manual mesh leveling
M117 Purge extruder
G92 E0 ; Reset extruder
M190 S80 ; Wait for bed final temp
M104 S240 ; Set extruder final temp
M109 S240 ; Wait for extruder final temp
G1 Z1.0 F3000 ; Move z up little to prevent scratching of the bed
G1 X2 Y20 Z0.3 F5000.0 ; Move to start-line position
G1 X2 Y200.0 Z0.3 F1500.0 E15 ; Draw 1st line
M73 P0 R32
G1 X3 Y200.0 Z0.3 F5000.0 ; Move to side a little
G1 X3 Y20 Z0.3 F1500.0 E30 ; Draw 2nd line
; G1 E27 F3000 ; Retract filament 3mm
G92 E0 ; Reset extruder
; Finish Purge Operation
G1 Z1.0 F3000 ; Move z up little to prevent scratching of the bed

; Set linear advance
M900 K0.04
G21 ; set units to millimeters
G90 ; use absolute coordinates
M83 ; use relative distances for extrusion
; Filament gcode
;BEFORE_LAYER_CHANGE
;G92 E0.0
;0.2


G1 E-1.20000 F2100.00000
G1 Z0.200 F9000.000
;AFTER_LAYER_CHANGE
;0.2
G1 X99.341 Y92.262
G1 E1.20000 F1800.00000
G1 F2100.000
G1 X100.426 Y91.139 E0.08206
G1 X101.945 Y89.866 E0.10419
G1 X103.203 Y89.030 E0.07936
G1 X104.610 Y88.297 E0.08338
G1 X106.063 Y87.739 E0.08179
G1 X107.576 Y87.354 E0.08207
G1 X109.126 Y87.154 E0.08215
G1 X190.048 Y87.124 E4.25308
G1 X191.553 Y87.214 E0.07922
G1 X193.088 Y87.495 E0.08203
G1 X194.512 Y87.930 E0.07828
G1 X196.249 Y88.704 E0.09991
G1 X197.575 Y89.500 E0.08129
G1 X199.070 Y90.643 E0.09889
G1 X200.170 Y91.685 E0.07966
G1 X201.353 Y93.046 E0.09479
G1 X202.131 Y94.103 E0.06896
G1 X203.168 Y95.776 E0.10348
G1 X204.043 Y97.500 E0.10160
G1 X204.818 Y99.384 E0.10707
G1 X205.444 Y101.297 E0.10577
G1 X205.944 Y103.276 E0.10728
G1 X206.318 Y105.320 E0.10922
G1 X206.552 Y107.307 E0.10515
G1 X206.676 Y110.444 E0.16501
G1 X206.649 Y191.069 E4.23744
G1 X206.508 Y193.076 E0.10578
G1 X206.240 Y195.128 E0.10877
G1 X205.850 Y197.129 E0.10715
G1 X205.308 Y199.165 E0.11072
G1 X204.657 Y201.060 E0.10532
G1 X203.706 Y203.217 E0.12387
G1 X202.918 Y204.666 E0.08671
G1 X201.806 Y206.356 E0.10634
G1 X200.745 Y207.684 E0.08928
G1 X199.313 Y209.141 E0.10740
G1 X198.048 Y210.172 E0.08579
G1 X196.721 Y211.040 E0.08335
G1 X195.109 Y211.839 E0.09454
G1 X193.723 Y212.331 E0.07726
G1 X191.962 Y212.721 E0.09484
G1 X190.515 Y212.858 E0.07637
G1 X109.701 Y212.865 E4.24742
G1 X107.725 Y212.670 E0.10435
G1 X105.709 Y212.140 E0.10954
G1 X103.921 Y211.368 E0.10239
G1 X102.286 Y210.377 E0.10047
G1 X100.362 Y208.796 E0.13091
G1 X98.658 Y206.913 E0.13342
G1 X97.190 Y204.781 E0.13605
G1 X95.937 Y202.383 E0.14223
G1 X94.866 Y199.589 E0.15723
G1 X94.094 Y196.686 E0.15790
G1 X93.593 Y193.652 E0.16162
G1 X93.374 Y190.638 E0.15882
G1 X93.385 Y108.956 E4.29303
G1 X93.515 Y107.014 E0.10228
G1 X93.864 Y104.458 E0.13559
G1 X94.251 Y102.603 E0.09960
G1 X94.734 Y100.830 E0.09655
G1 X95.336 Y99.075 E0.09754
G1 X96.316 Y96.821 E0.12918
G1 X97.198 Y95.203 E0.09685
G1 X98.091 Y93.838 E0.08573
G1 X99.285 Y92.333 E0.10098
G1 X99.780 Y92.726 F9000.000
G1 F2100.000
G1 X100.860 Y91.598 E0.08209
G1 X102.328 Y90.369 E0.10059
G1 X103.528 Y89.572 E0.07571
G1 X104.872 Y88.872 E0.07966
G1 X106.257 Y88.341 E0.07799
G1 X107.699 Y87.974 E0.07815
G1 X109.185 Y87.783 E0.07876
G1 X190.048 Y87.756 E4.24997
G1 X191.475 Y87.842 E0.07512
G1 X192.934 Y88.108 E0.07799
G1 X194.653 Y88.660 E0.09488
G1 X195.970 Y89.272 E0.07632
G1 X197.227 Y90.028 E0.07710
G1 X198.671 Y91.134 E0.09559
G1 X199.718 Y92.128 E0.07588
G1 X200.882 Y93.469 E0.09335
G1 X201.606 Y94.455 E0.06427
G1 X202.616 Y96.084 E0.10075
G1 X203.468 Y97.764 E0.09898
G1 X204.227 Y99.607 E0.10476
G1 X204.837 Y101.472 E0.10313
G1 X205.328 Y103.415 E0.10535
G1 X205.694 Y105.418 E0.10702
G1 X205.924 Y107.387 E0.10416
G1 X206.044 Y110.446 E0.16093
G1 X206.017 Y191.034 E4.23550
G1 X205.879 Y193.018 E0.10453
G1 X205.616 Y195.025 E0.10639
G1 X205.234 Y196.987 E0.10505
G1 X204.706 Y198.973 E0.10798
G1 X204.070 Y200.825 E0.10296
G1 X203.140 Y202.935 E0.12119
G1 X202.375 Y204.342 E0.08413
G1 X201.280 Y206.005 E0.10464
G1 X200.271 Y207.266 E0.08492
G1 X198.883 Y208.677 E0.10402
G1 X197.678 Y209.660 E0.08173
G1 X196.407 Y210.491 E0.07983
G1 X194.858 Y211.258 E0.09084
G1 X193.549 Y211.723 E0.07299
G1 X191.859 Y212.097 E0.09098
G1 X190.483 Y212.227 E0.07265
G1 X109.721 Y212.233 E4.24463
G1 X107.839 Y212.048 E0.09940
G1 X105.907 Y211.540 E0.10500
G1 X104.208 Y210.805 E0.09729
G1 X102.641 Y209.854 E0.09633
G1 X100.793 Y208.334 E0.12577
G1 X99.147 Y206.512 E0.12906
G1 X97.729 Y204.450 E0.13148
G1 X96.509 Y202.112 E0.13866
G1 X95.468 Y199.396 E0.15285
G1 X94.709 Y196.542 E0.15520
G1 X94.220 Y193.573 E0.15814
G1 X94.006 Y190.608 E0.15626
G1 X94.016 Y108.989 E4.28968
G1 X94.144 Y107.079 E0.10062
G1 X94.488 Y104.561 E0.13354
G1 X94.865 Y102.752 E0.09716
G1 X95.338 Y101.018 E0.09447
G1 X95.924 Y99.307 E0.09504
G1 X96.887 Y97.094 E0.12684
G1 X97.744 Y95.522 E0.09411
G1 X98.612 Y94.195 E0.08335
G1 X99.724 Y92.796 E0.09391
G1 F7200.000
G1 X100.860 Y91.598 E-0.45761
G1 X102.328 Y90.369 E-0.53032
G1 X102.785 Y90.066 E-0.15207
G1 E-0.06000 F2100.00000
G1 X185.699 Y181.408 F9000.000
G1 E1.20000 F1800.00000
G1 X186.329 Y180.880 E0.04318
G1 X187.026 Y180.419 E0.04391
G1 X187.737 Y180.065 E0.04174
G1 X188.478 Y179.805 E0.04128
G1 X189.267 Y179.641 E0.04236
G1 X190.013 Y179.590 E0.03930
G1 X190.814 Y179.641 E0.04218
G1 X191.606 Y179.805 E0.04249
G1 X192.347 Y180.065 E0.04128
G1 X193.058 Y180.419 E0.04174
G1 X193.755 Y180.880 E0.04391
G1 X194.385 Y181.408 E0.04318
G1 X194.966 Y182.009 E0.04397
G1 X195.497 Y182.679 E0.04493
G1 X195.990 Y183.437 E0.04753
G1 X196.409 Y184.225 E0.04686
G1 X196.779 Y185.088 E0.04940
G1 X197.074 Y185.962 E0.04845
G1 X197.306 Y186.867 E0.04912
G1 X197.474 Y187.796 E0.04960
G1 X197.578 Y188.761 E0.05104
G1 X197.612 Y189.736 E0.05125
G1 X197.578 Y190.710 E0.05125
G1 X197.474 Y191.676 E0.05104
G1 X197.306 Y192.604 E0.04960
G1 X197.074 Y193.510 E0.04912
G1 X196.779 Y194.383 E0.04845
G1 X196.409 Y195.247 E0.04940
G1 X195.991 Y196.033 E0.04681
G1 X195.516 Y196.766 E0.04590
G1 X194.967 Y197.461 E0.04656
G1 X194.385 Y198.064 E0.04401
G1 X193.755 Y198.591 E0.04318
G1 X193.058 Y199.052 E0.04391
G1 X192.347 Y199.406 E0.04174
G1 X191.606 Y199.666 E0.04128
G1 X190.816 Y199.830 E0.04240
G1 X190.042 Y199.882 E0.04077
G1 X189.268 Y199.830 E0.04077
G1 X188.478 Y199.666 E0.04240
G1 X187.737 Y199.406 E0.04128
G1 X187.026 Y199.052 E0.04174
G1 X186.329 Y198.591 E0.04391
G1 X185.699 Y198.064 E0.04318
G1 X185.118 Y197.461 E0.04401
G1 X184.568 Y196.766 E0.04656
G1 X184.093 Y196.033 E0.04590
G1 X183.675 Y195.247 E0.04681
G1 X183.305 Y194.383 E0.04940
G1 X183.010 Y193.510 E0.04845
G1 X182.778 Y192.604 E0.04912
G1 X182.610 Y191.676 E0.04960
G1 X182.507 Y190.710 E0.05104
G1 X182.472 Y189.736 E0.05125
G1 X182.506 Y188.761 E0.05125
G1 X182.610 Y187.796 E0.05104
G1 X182.778 Y186.867 E0.04960
G1 X183.010 Y185.962 E0.04912
G1 X183.305 Y185.088 E0.04845
G1 X183.675 Y184.225 E0.04940
G1 X184.093 Y183.438 E0.04681
G1 X184.568 Y182.705 E0.04590
G1 X185.117 Y182.010 E0.04656
G1 X185.637 Y181.473 E0.03928
G1 X186.131 Y181.871 F9000.000
G1 F1260.000
G1 X186.708 Y181.388 E0.03954
G1 X187.343 Y180.968 E0.04001
G1 X187.984 Y180.648 E0.03764
G1 X188.648 Y180.415 E0.03699
G1 X189.354 Y180.269 E0.03790
G1 X190.015 Y180.223 E0.03484
G1 X190.729 Y180.269 E0.03762
G1 X191.436 Y180.415 E0.03795
G1 X192.101 Y180.648 E0.03699
G1 X192.741 Y180.968 E0.03764
G1 X193.377 Y181.388 E0.04001
G1 X193.953 Y181.871 E0.03954
G1 X194.490 Y182.426 E0.04060
G1 X194.983 Y183.049 E0.04175
G1 X195.445 Y183.759 E0.04451
G1 X195.838 Y184.498 E0.04400
G1 X196.188 Y185.315 E0.04670
G1 X196.468 Y186.142 E0.04589
G1 X196.688 Y187.002 E0.04667
G1 X196.848 Y187.886 E0.04721
G1 X196.947 Y188.806 E0.04866
G1 X196.980 Y189.736 E0.04888
G1 X196.947 Y190.665 E0.04888
G1 X196.848 Y191.586 E0.04866
G1 X196.688 Y192.470 E0.04721
G1 X196.468 Y193.330 E0.04667
G1 X196.188 Y194.157 E0.04589
G1 X195.838 Y194.973 E0.04670
G1 X195.445 Y195.712 E0.04398
G1 X195.001 Y196.398 E0.04291
G1 X194.490 Y197.045 E0.04335
G1 X193.953 Y197.600 E0.04061
G1 X193.376 Y198.084 E0.03954
G1 X192.741 Y198.503 E0.04001
G1 X192.100 Y198.823 E0.03764
G1 X191.436 Y199.056 E0.03698
G1 X190.730 Y199.202 E0.03791
G1 X190.042 Y199.249 E0.03624
G1 X189.354 Y199.202 E0.03624
G1 X188.648 Y199.056 E0.03791
G1 X187.984 Y198.823 E0.03698
G1 X187.343 Y198.503 E0.03764
G1 X186.708 Y198.084 E0.04001
G1 X186.131 Y197.600 E0.03954
G1 X185.594 Y197.045 E0.04061
G1 X185.083 Y196.398 E0.04335
G1 X184.639 Y195.712 E0.04291
G1 X184.246 Y194.973 E0.04398
G1 X183.896 Y194.157 E0.04670
G1 X183.616 Y193.330 E0.04589
G1 X183.396 Y192.470 E0.04667
G1 X183.236 Y191.586 E0.04721
G1 X183.137 Y190.665 E0.04866
G1 X183.104 Y189.736 E0.04888
G1 X183.137 Y188.806 E0.04888
G1 X183.236 Y187.886 E0.04866
G1 X183.396 Y187.002 E0.04721
G1 X183.616 Y186.142 E0.04667
G1 X183.896 Y185.315 E0.04589
G1 X184.246 Y184.498 E0.04670
G1 X184.639 Y183.759 E0.04399
G1 X185.083 Y183.074 E0.04291
G1 X185.594 Y182.427 E0.04335
G1 X186.068 Y181.936 E0.03588
G1 X185.996 Y181.286 F9000.000
G1 F7200.000
G1 X186.708 Y181.388 E-0.23329
G1 X187.343 Y180.968 E-0.21092
G1 X187.984 Y180.648 E-0.19846
G1 X188.648 Y180.415 E-0.19499
G1 X189.354 Y180.269 E-0.19980
G1 X189.723 Y180.243 E-0.10254
G1 E-0.06000 F2100.00000
G1 X182.554 Y180.388 F9000.000
G1 E1.20000 F1800.00000
G1 X182.697 Y180.045 E0.01956
G1 X183.251 Y178.937 E0.06510
G1 X183.850 Y177.943 E0.06099
G1 X184.377 Y177.202 E0.04780
G1 X184.637 Y176.876 E0.02192
G1 X185.214 Y176.232 E0.04543
G1 X185.491 Y175.957 E0.02051
G1 X186.107 Y175.421 E0.04293
G1 X186.396 Y175.201 E0.01910
G1 X187.032 Y174.786 E0.03991
G1 X187.684 Y174.449 E0.03859
G1 X187.984 Y174.324 E0.01706
G1 X188.666 Y174.105 E0.03767
G1 X188.999 Y174.031 E0.01790
G1 X189.681 Y173.943 E0.03617
G1 X190.305 Y173.939 E0.03280
G1 X190.674 Y173.969 E0.01943
G1 X191.282 Y174.076 E0.03244
G1 X191.929 Y174.266 E0.03545
G1 X192.214 Y174.375 E0.01606
G1 X192.848 Y174.675 E0.03684
G1 X193.130 Y174.835 E0.01702
G1 X193.741 Y175.240 E0.03857
G1 X194.015 Y175.449 E0.01807
G1 X194.595 Y175.955 E0.04046
G1 X195.267 Y176.661 E0.05123
G1 X195.658 Y177.140 E0.03252
G1 X196.035 Y177.654 E0.03348
G1 X196.396 Y178.201 E0.03443
G1 X196.740 Y178.779 E0.03536
G1 X197.066 Y179.387 E0.03625
G1 X197.373 Y180.022 E0.03711
G1 X197.661 Y180.684 E0.03792
G1 X197.928 Y181.370 E0.03868
G1 X198.174 Y182.078 E0.03939
G1 X198.399 Y182.806 E0.04004
G1 X198.601 Y183.552 E0.04064
G1 X198.780 Y184.315 E0.04118
G1 X198.935 Y185.093 E0.04167
G1 X199.066 Y185.883 E0.04209
G1 X199.172 Y186.684 E0.04246
G1 X199.252 Y187.485 E0.04232
G1 X199.307 Y188.292 E0.04253
G1 X199.337 Y189.103 E0.04267
G1 X199.342 Y189.917 E0.04274
G1 X199.279 Y191.540 E0.08539
G1 X199.211 Y192.346 E0.04251
G1 X199.004 Y193.936 E0.08427
G1 X198.865 Y194.716 E0.04162
G1 X198.703 Y195.482 E0.04117
G1 X198.519 Y196.233 E0.04066
G1 X198.312 Y196.967 E0.04007
G1 X198.083 Y197.681 E0.03942
G1 X197.832 Y198.374 E0.03871
G1 X197.563 Y199.039 E0.03771
G1 X197.117 Y199.997 E0.05557
G1 X196.887 Y200.436 E0.02600
G1 X196.381 Y201.299 E0.05258
G1 X195.837 Y202.095 E0.05072
G1 X195.565 Y202.448 E0.02340
G1 X194.972 Y203.134 E0.04768
G1 X194.348 Y203.743 E0.04580
G1 X194.048 Y203.997 E0.02067
G1 X193.378 Y204.488 E0.04364
G1 X193.064 Y204.682 E0.01943
G1 X192.496 Y204.978 E0.03362
G1 X192.238 Y205.090 E0.01478
G1 X191.661 Y205.292 E0.03213
G1 X191.076 Y205.434 E0.03164
G1 X190.812 Y205.477 E0.01407
G1 X190.210 Y205.530 E0.03177
G1 X189.946 Y205.533 E0.01385
G1 X189.346 Y205.493 E0.03162
G1 X189.086 Y205.455 E0.01384
G1 X188.499 Y205.321 E0.03164
G1 X188.110 Y205.195 E0.02148
G1 X187.718 Y205.037 E0.02221
G1 X187.330 Y204.851 E0.02263
G1 X186.946 Y204.635 E0.02311
G1 X186.568 Y204.391 E0.02366
G1 X186.196 Y204.119 E0.02424
G1 X185.830 Y203.819 E0.02486
G1 X185.472 Y203.492 E0.02550
G1 X184.780 Y202.760 E0.05295
G1 X184.133 Y201.936 E0.05505
G1 X183.521 Y201.003 E0.05868
G1 X182.962 Y199.987 E0.06094
G1 X182.666 Y199.366 E0.03613
G1 X182.387 Y198.713 E0.03735
G1 X182.128 Y198.035 E0.03813
G1 X181.889 Y197.335 E0.03885
G1 X181.672 Y196.616 E0.03951
G1 X181.477 Y195.878 E0.04011
G1 X181.152 Y194.357 E0.08175
G1 X180.919 Y192.788 E0.08333
G1 X180.838 Y191.992 E0.04209
G1 X180.747 Y190.383 E0.08467
G1 X180.739 Y189.576 E0.04244
G1 X180.795 Y187.970 E0.08444
G1 X180.930 Y186.541 E0.07544
G1 X181.142 Y185.138 E0.07459
G1 X181.273 Y184.467 E0.03594
G1 X181.596 Y183.124 E0.07258
G1 X181.989 Y181.835 E0.07085
G1 X182.205 Y181.232 E0.03363
G1 X182.520 Y180.472 E0.04326
G1 X181.970 Y180.146 F9000.000
G1 F1260.000
G1 X182.121 Y179.782 E0.02074
G1 X182.694 Y178.638 E0.06724
G1 X183.001 Y178.103 E0.03242
G1 X183.324 Y177.591 E0.03183
G1 X183.872 Y176.821 E0.04964
G1 X184.154 Y176.468 E0.02378
G1 X184.755 Y175.796 E0.04737
G1 X185.060 Y175.494 E0.02257
G1 X185.707 Y174.930 E0.04510
G1 X186.032 Y174.684 E0.02140
G1 X186.713 Y174.239 E0.04279
G1 X187.417 Y173.876 E0.04162
G1 X187.765 Y173.730 E0.01983
G1 X188.500 Y173.495 E0.04058
G1 X188.879 Y173.410 E0.02042
G1 X189.649 Y173.311 E0.04078
G1 X190.328 Y173.307 E0.03571
G1 X190.745 Y173.340 E0.02197
G1 X191.435 Y173.462 E0.03682
G1 X192.131 Y173.667 E0.03815
G1 X192.463 Y173.794 E0.01865
G1 X193.139 Y174.114 E0.03933
G1 X193.460 Y174.296 E0.01940
G1 X194.108 Y174.725 E0.04085
G1 X194.415 Y174.959 E0.02027
G1 X195.025 Y175.492 E0.04257
G1 X195.745 Y176.247 E0.05484
G1 X196.158 Y176.753 E0.03432
G1 X196.554 Y177.293 E0.03518
G1 X196.932 Y177.865 E0.03603
G1 X197.290 Y178.468 E0.03687
G1 X197.629 Y179.100 E0.03769
G1 X197.948 Y179.759 E0.03847
G1 X198.245 Y180.443 E0.03922
G1 X198.521 Y181.151 E0.03993
G1 X198.775 Y181.881 E0.04060
G1 X199.006 Y182.630 E0.04122
G1 X199.214 Y183.397 E0.04178
G1 X199.398 Y184.181 E0.04230
G1 X199.557 Y184.979 E0.04277
G1 X199.691 Y185.789 E0.04318
G1 X199.800 Y186.611 E0.04354
G1 X199.882 Y187.432 E0.04338
G1 X199.938 Y188.259 E0.04357
G1 X199.969 Y189.090 E0.04369
G1 X199.974 Y189.922 E0.04375
G1 X199.954 Y190.754 E0.04374
G1 X199.910 Y191.584 E0.04366
G1 X199.840 Y192.409 E0.04352
G1 X199.746 Y193.227 E0.04330
G1 X199.628 Y194.037 E0.04302
G1 X199.485 Y194.836 E0.04267
G1 X199.319 Y195.623 E0.04225
G1 X199.130 Y196.394 E0.04176
G1 X198.917 Y197.149 E0.04122
G1 X198.681 Y197.885 E0.04062
G1 X198.423 Y198.600 E0.03996
G1 X198.142 Y199.291 E0.03918
G1 X197.683 Y200.277 E0.05717
G1 X197.440 Y200.742 E0.02758
G1 X196.915 Y201.637 E0.05454
G1 X196.349 Y202.466 E0.05278
G1 X196.055 Y202.848 E0.02529
G1 X195.432 Y203.568 E0.05006
G1 X194.774 Y204.210 E0.04834
G1 X194.440 Y204.494 E0.02302
G1 X193.731 Y205.012 E0.04614
G1 X193.376 Y205.232 E0.02195
G1 X192.768 Y205.549 E0.03604
G1 X192.469 Y205.679 E0.01716
G1 X191.841 Y205.898 E0.03496
G1 X191.203 Y206.054 E0.03452
G1 X190.891 Y206.105 E0.01658
G1 X190.241 Y206.162 E0.03431
G1 X189.929 Y206.166 E0.01642
G1 X189.279 Y206.122 E0.03421
G1 X188.969 Y206.077 E0.01646
G1 X188.331 Y205.931 E0.03442
G1 X187.895 Y205.790 E0.02409
G1 X187.463 Y205.616 E0.02446
G1 X187.038 Y205.412 E0.02479
G1 X186.620 Y205.177 E0.02518
G1 X186.210 Y204.912 E0.02563
G1 X185.809 Y204.619 E0.02613
G1 X185.416 Y204.297 E0.02666
G1 X185.034 Y203.949 E0.02721
G1 X184.662 Y203.573 E0.02778
G1 X183.951 Y202.746 E0.05731
G1 X183.616 Y202.299 E0.02936
G1 X182.979 Y201.329 E0.06101
G1 X182.399 Y200.275 E0.06320
G1 X182.090 Y199.626 E0.03778
G1 X181.801 Y198.950 E0.03866
G1 X181.533 Y198.250 E0.03938
G1 X181.287 Y197.529 E0.04005
G1 X181.064 Y196.788 E0.04066
G1 X180.863 Y196.030 E0.04122
G1 X180.685 Y195.256 E0.04172
