; generated by PrusaSlicer 2.2.0+ on 2020-10-15 at 18:29:53 UTC

; 

; external perimeters extrusion width = 0.45mm
; perimeters extrusion width = 0.45mm
; infill extrusion width = 0.45mm
; solid infill extrusion width = 0.45mm
; top infill extrusion width = 0.40mm
; first layer extrusion width = 0.40mm

M107
G90 ; use absolute coordinates

M140 S75 ; set bed temp
M190 S75 ; wait for bed temp

G28 ; home all axes
G29 A ; turn back on leveling
G29 L0 ; load mesh 0
; G29 J ; three-point level mesh
G1 X50 Y50 Z50 F5000

M104 S215 ; set extruder temp
M109 S215 ; wait for extruder temp


G92 E0                ; Reset extruder

G1 Y0 X0 Z0.4 F5000 ; move outside print area
G1 Y60 E9 F500 ; start purge line
G1 Y100 E12.5 F500 ; finish purge line



G92 E0                ; Reset extruder

M900 K0.07 ; Set linear advance

G1 E-1 F1400          ; Retract 1mm filament
G21 ; set units to millimeters
G90 ; use absolute coordinates
M82 ; use absolute distances for extrusion
G92 E0
; Filament gcode
;LAYER:0
G1 E-0.50000 F2400.00000
G92 E0
G1 Z0.200 F9000.000
G4 P1
G1 X88.703 Y88.595
G1 E0.50000 F2460.00000
G1 F2520.000
G1 X90.025 Y87.378 E0.55229
G1 X91.491 Y86.245 E0.60621
G1 X92.940 Y85.322 E0.65620
G1 X94.043 Y84.733 E0.69258
G1 X95.582 Y84.064 E0.74140
G1 X97.253 Y83.523 E0.79252
G1 X98.853 Y83.172 E0.84017
G1 X100.064 Y83.010 E0.87573
G1 X101.710 Y82.929 E0.92367
G1 X102.814 Y82.967 E0.95583
G1 X104.346 Y83.141 E1.00068
G1 X134.037 Y87.593 E1.87429
G1 X135.075 Y87.804 E1.90510
G1 X137.307 Y88.548 E1.97357
G1 X138.528 Y89.133 E2.01296
G1 X139.749 Y89.863 E2.05436
G1 X140.918 Y90.712 E2.09639
G1 X141.946 Y91.601 E2.13593
G1 X143.672 Y93.459 E2.20973
G1 X145.107 Y95.464 E2.28148
G1 X146.200 Y97.393 E2.34597
G1 X147.385 Y100.105 E2.43211
G1 X148.109 Y102.308 E2.49956
G1 X148.792 Y105.216 E2.58648
G1 X149.138 Y107.540 E2.65485
G1 X149.344 Y110.623 E2.74477
G1 X149.268 Y113.805 E2.83738
G1 X148.921 Y116.853 E2.92664
G1 X148.479 Y119.119 E2.99381
G1 X147.656 Y122.013 E3.08137
G1 X146.617 Y124.620 E3.16304
G1 X145.510 Y126.741 E3.23265
G1 X144.201 Y128.719 E3.30167
G1 X142.716 Y130.492 E3.36896
G1 X140.962 Y132.115 E3.43850
G1 X139.143 Y133.383 E3.50300
G1 X137.608 Y134.186 E3.55342
G1 X135.715 Y134.883 E3.61210
G1 X133.607 Y135.324 E3.67478
G1 X102.703 Y136.977 E4.57529
G1 X100.945 Y136.993 E4.62644
G1 X98.626 Y136.732 E4.69435
G1 X96.720 Y136.266 E4.75145
G1 X94.801 Y135.556 E4.81099
G1 X93.103 Y134.708 E4.86619
G1 X91.421 Y133.642 E4.92414
G1 X89.852 Y132.414 E4.98213
G1 X88.439 Y131.080 E5.03864
G1 X86.758 Y129.141 E5.11333
G1 X85.567 Y127.464 E5.17318
G1 X84.858 Y126.307 E5.21268
G1 X83.883 Y124.465 E5.27331
G1 X83.023 Y122.502 E5.33567
G1 X81.922 Y119.205 E5.43681
G1 X81.422 Y117.142 E5.49858
G1 X81.043 Y114.994 E5.56203
G1 X80.717 Y111.468 E5.66507
G1 X80.693 Y109.326 E5.72740
G1 X80.804 Y107.113 E5.79189
G1 X81.052 Y104.915 E5.85624
G1 X81.418 Y102.832 E5.91777
G1 X82.290 Y99.489 E6.01831
G1 X83.477 Y96.348 E6.11601
G1 X84.371 Y94.507 E6.17555
G1 X85.338 Y92.839 E6.23167
G1 X86.339 Y91.363 E6.28356
G1 X87.477 Y89.922 E6.33697
G1 X88.662 Y88.639 E6.38780
G1 X88.924 Y88.881 F9000.000
G1 F2520.000
G1 X90.239 Y87.665 E6.43993
G1 X91.695 Y86.539 E6.49348
G1 X93.123 Y85.629 E6.54277
G1 X94.192 Y85.058 E6.57802
G1 X95.707 Y84.399 E6.62608
G1 X97.344 Y83.868 E6.67617
G1 X98.912 Y83.525 E6.72287
G1 X100.090 Y83.366 E6.75745
G1 X101.708 Y83.286 E6.80459
G1 X104.295 Y83.494 E6.88011
G1 X134.977 Y88.147 E7.78308
G1 X137.160 Y88.873 E7.85002
G1 X138.351 Y89.444 E7.88847
G1 X139.551 Y90.160 E7.92911
G1 X140.699 Y90.994 E7.97040
G1 X141.701 Y91.860 E8.00894
G1 X143.376 Y93.660 E8.08049
G1 X144.614 Y95.359 E8.14166
G1 X145.879 Y97.550 E8.21527
G1 X147.052 Y100.235 E8.30053
G1 X147.765 Y102.401 E8.36689
G1 X148.442 Y105.285 E8.45308
G1 X148.782 Y107.574 E8.52043
G1 X148.987 Y110.633 E8.60963
G1 X148.912 Y113.770 E8.70093
G1 X148.568 Y116.795 E8.78950
G1 X148.133 Y119.030 E8.85577
G1 X147.319 Y121.895 E8.94244
G1 X146.296 Y124.462 E9.02284
G1 X145.204 Y126.557 E9.09159
G1 X143.921 Y128.498 E9.15930
G1 X142.463 Y130.240 E9.22538
G1 X140.760 Y131.820 E9.29297
G1 X139.342 Y132.840 E9.34380
G1 X137.475 Y133.854 E9.40561
G1 X135.624 Y134.537 E9.46304
G1 X133.562 Y134.969 E9.52433
G1 X102.684 Y136.621 E10.42408
G1 X101.034 Y136.640 E10.47212
G1 X99.348 Y136.488 E10.52135
G1 X97.529 Y136.124 E10.57535
G1 X95.742 Y135.555 E10.62991
G1 X93.916 Y134.740 E10.68809
G1 X92.275 Y133.788 E10.74329
G1 X90.264 Y132.295 E10.81618
G1 X88.797 Y130.937 E10.87436
G1 X87.471 Y129.462 E10.93206
G1 X86.377 Y128.026 E10.98460
G1 X85.279 Y126.320 E11.04361
G1 X83.751 Y123.321 E11.14155
G1 X82.958 Y121.312 E11.20439
G1 X82.324 Y119.320 E11.26524
G1 X81.550 Y115.909 E11.36700
G1 X81.250 Y113.784 E11.42944
G1 X81.083 Y111.651 E11.49170
G1 X81.094 Y108.136 E11.59398
G1 X81.268 Y106.032 E11.65542
G1 X81.583 Y103.864 E11.71915
G1 X82.030 Y101.738 E11.78236
G1 X82.602 Y99.687 E11.84433
G1 X83.796 Y96.509 E11.94312
G1 X84.685 Y94.678 E12.00235
G1 X85.631 Y93.043 E12.05730
G1 X86.625 Y91.576 E12.10886
G1 X87.746 Y90.157 E12.16149
G1 X88.883 Y88.925 E12.21026
G1 X89.145 Y89.168 F9000.000
G1 F2520.000
G1 X90.464 Y87.942 E12.26263
G1 X91.898 Y86.832 E12.31541
G1 X93.301 Y85.938 E12.36381
G1 X94.347 Y85.380 E12.39832
G1 X95.832 Y84.733 E12.44544
G1 X97.442 Y84.211 E12.49468
G1 X98.977 Y83.876 E12.54042
G1 X100.122 Y83.722 E12.57403
G1 X101.706 Y83.643 E12.62018
G1 X104.244 Y83.848 E12.69426
G1 X134.879 Y88.491 E13.59584
G1 X137.012 Y89.198 E13.66124
G1 X138.181 Y89.757 E13.69894
G1 X139.347 Y90.453 E13.73845
G1 X140.475 Y91.272 E13.77899
G1 X141.455 Y92.119 E13.81671
G1 X143.080 Y93.863 E13.88605
G1 X144.308 Y95.543 E13.94661
G1 X145.558 Y97.707 E14.01933
G1 X146.720 Y100.364 E14.10372
G1 X147.420 Y102.495 E14.16898
G1 X148.091 Y105.355 E14.25444
G1 X148.427 Y107.610 E14.32078
G1 X148.630 Y110.637 E14.40908
G1 X148.557 Y113.736 E14.49926
G1 X148.215 Y116.743 E14.58731
G1 X147.788 Y118.938 E14.65240
G1 X146.982 Y121.778 E14.73828
G1 X145.976 Y124.304 E14.81742
G1 X144.898 Y126.373 E14.88530
G1 X143.640 Y128.277 E14.95170
G1 X142.210 Y129.988 E15.01658
G1 X140.562 Y131.521 E15.08207
G1 X139.163 Y132.531 E15.13228
G1 X137.336 Y133.525 E15.19278
G1 X135.526 Y134.194 E15.24894
G1 X133.512 Y134.616 E15.30882
G1 X102.666 Y136.264 E16.20763
G1 X101.062 Y136.284 E16.25431
G1 X99.401 Y136.135 E16.30284
G1 X97.620 Y135.779 E16.35569
G1 X95.870 Y135.221 E16.40911
G1 X94.087 Y134.427 E16.46592
G1 X92.472 Y133.490 E16.52024
G1 X90.490 Y132.019 E16.59208
G1 X89.053 Y130.688 E16.64906
G1 X87.765 Y129.257 E16.70508
G1 X86.671 Y127.823 E16.75757
G1 X85.587 Y126.140 E16.81581
G1 X84.079 Y123.181 E16.91245
G1 X83.293 Y121.190 E16.97474
G1 X82.667 Y119.218 E17.03494
G1 X81.903 Y115.853 E17.13535
G1 X81.605 Y113.749 E17.19718
G1 X81.439 Y111.630 E17.25902
G1 X81.450 Y108.160 E17.35999
G1 X81.622 Y106.076 E17.42085
G1 X81.934 Y103.930 E17.48393
G1 X82.376 Y101.826 E17.54648
G1 X82.938 Y99.809 E17.60743
G1 X84.118 Y96.663 E17.70519
G1 X84.999 Y94.848 E17.76390
G1 X85.928 Y93.241 E17.81789
G1 X86.911 Y91.789 E17.86892
G1 X88.016 Y90.391 E17.92076
G1 X89.105 Y89.212 E17.96748
G1 X89.367 Y89.454 F9000.000
G1 F2520.000
G1 X90.689 Y88.220 E18.02010
G1 X92.028 Y87.179 E18.06945
G1 X92.983 Y86.545 E18.10281
G1 X94.409 Y85.747 E18.15037
G1 X95.951 Y85.070 E18.19937
G1 X97.533 Y84.557 E18.24775
G1 X99.043 Y84.227 E18.29271
G1 X100.155 Y84.077 E18.32536
G1 X101.711 Y84.000 E18.37069
G1 X104.193 Y84.201 E18.44316
G1 X134.782 Y88.835 E19.34338
G1 X136.871 Y89.526 E19.40740
G1 X138.011 Y90.071 E19.44416
G1 X139.149 Y90.750 E19.48272
G1 X140.251 Y91.550 E19.52234
G1 X141.210 Y92.379 E19.55924
G1 X142.786 Y94.066 E19.62641
G1 X144.007 Y95.735 E19.68658
G1 X145.238 Y97.864 E19.75814
G1 X146.387 Y100.494 E19.84164
G1 X147.076 Y102.589 E19.90582
G1 X147.741 Y105.424 E19.99055
G1 X148.072 Y107.645 E20.05588
G1 X148.272 Y110.642 E20.14327
G1 X148.201 Y113.702 E20.23235
G1 X147.863 Y116.685 E20.31969
G1 X147.441 Y118.853 E20.38397
G1 X146.645 Y121.660 E20.46887
G1 X145.652 Y124.153 E20.54694
G1 X144.591 Y126.190 E20.61377
G1 X143.359 Y128.057 E20.67886
G1 X141.956 Y129.737 E20.74255
G1 X140.352 Y131.231 E20.80632
G1 X138.983 Y132.223 E20.85554
G1 X137.197 Y133.196 E20.91470
G1 X135.428 Y133.851 E20.96959
G1 X133.462 Y134.262 E21.02805
G1 X102.648 Y135.908 E21.92593
G1 X101.083 Y135.927 E21.97145
G1 X99.459 Y135.783 E22.01891
G1 X97.717 Y135.435 E22.07060
G1 X95.999 Y134.888 E22.12306
G1 X94.258 Y134.113 E22.17851
G1 X92.755 Y133.249 E22.22894
G1 X91.205 Y132.142 E22.28438
G1 X89.378 Y130.508 E22.35569
G1 X88.058 Y129.051 E22.41290
G1 X86.965 Y127.620 E22.46530
G1 X85.892 Y125.954 E22.52295
G1 X84.407 Y123.041 E22.61810
G1 X83.630 Y121.073 E22.67965
G1 X83.009 Y119.116 E22.73940
G1 X82.255 Y115.796 E22.83845
G1 X81.960 Y113.707 E22.89986
G1 X81.796 Y111.609 E22.96110
G1 X81.806 Y108.190 E23.06057
G1 X81.977 Y106.113 E23.12121
G1 X82.285 Y103.996 E23.18346
G1 X82.722 Y101.914 E23.24536
G1 X83.274 Y99.929 E23.30531
G1 X84.443 Y96.811 E23.40220
G1 X85.313 Y95.017 E23.46021
G1 X86.228 Y93.434 E23.51342
G1 X87.201 Y91.997 E23.56391
G1 X88.285 Y90.625 E23.61479
G1 X89.326 Y89.498 E23.65944
G1 X89.588 Y89.740 F9000.000
G1 F2520.000
G1 X89.710 Y89.608 E23.66465
G1 X90.915 Y88.496 E23.71236
G1 X93.164 Y86.853 E23.79340
G1 X94.567 Y86.067 E23.84022
G1 X96.077 Y85.404 E23.88820
G1 X97.625 Y84.902 E23.93555
G1 X99.108 Y84.578 E23.97972
G1 X100.187 Y84.433 E24.01141
G1 X101.709 Y84.357 E24.05574
G1 X104.142 Y84.554 E24.12677
G1 X134.686 Y89.179 E25.02565
G1 X136.724 Y89.852 E25.08811
G1 X137.841 Y90.385 E25.12410
G1 X138.951 Y91.047 E25.16172
G1 X140.031 Y91.832 E25.20057
G1 X140.965 Y92.639 E25.23650
G1 X142.496 Y94.276 E25.30170
G1 X143.706 Y95.927 E25.36125
G1 X144.917 Y98.022 E25.43168
G1 X146.054 Y100.623 E25.51428
G1 X146.731 Y102.684 E25.57738
G1 X147.390 Y105.488 E25.66119
G1 X147.716 Y107.680 E25.72569
G1 X147.916 Y110.652 E25.81236
G1 X147.845 Y113.675 E25.90034
G1 X147.510 Y116.627 E25.98679
G1 X147.108 Y118.710 E26.04854
G1 X146.328 Y121.481 E26.13229
G1 X145.559 Y123.487 E26.19480
G1 X144.326 Y125.935 E26.27454
G1 X143.123 Y127.775 E26.33852
G1 X141.710 Y129.477 E26.40289
G1 X140.146 Y130.938 E26.46514
G1 X138.801 Y131.915 E26.51352
G1 X137.057 Y132.867 E26.57134
G1 X135.330 Y133.507 E26.62494
G1 X133.417 Y133.908 E26.68180
G1 X102.629 Y135.551 E27.57893
G1 X101.104 Y135.571 E27.62331
G1 X99.510 Y135.429 E27.66987
G1 X97.807 Y135.090 E27.72040
G1 X96.126 Y134.555 E27.77172
G1 X94.423 Y133.796 E27.82599
G1 X92.950 Y132.950 E27.87543
G1 X91.437 Y131.870 E27.92950
G1 X89.632 Y130.257 E27.99994
G1 X88.349 Y128.844 E28.05546
G1 X87.262 Y127.422 E28.10757
G1 X86.200 Y125.773 E28.16461
G1 X84.736 Y122.900 E28.25846
G1 X83.966 Y120.951 E28.31944
G1 X83.351 Y119.014 E28.37855
G1 X82.608 Y115.739 E28.47627
G1 X82.314 Y113.665 E28.53723
G1 X82.152 Y111.587 E28.59787
G1 X82.162 Y108.214 E28.69604
G1 X82.332 Y106.157 E28.75609
G1 X82.637 Y104.055 E28.81787
G1 X83.070 Y101.996 E28.87911
G1 X83.613 Y100.043 E28.93809
G1 X84.768 Y96.959 E29.03392
G1 X85.630 Y95.182 E29.09139
G1 X86.529 Y93.627 E29.14366
G1 X87.488 Y92.210 E29.19342
G1 X88.555 Y90.859 E29.24353
G1 X89.548 Y89.784 E29.28610
G1 X91.141 Y88.773 F9000.000
G1 F2520.000
G1 X93.344 Y87.161 E29.36554
G1 X94.726 Y86.387 E29.41161
G1 X96.203 Y85.738 E29.45856
G1 X97.722 Y85.245 E29.50504
G1 X99.173 Y84.929 E29.54825
G1 X100.215 Y84.789 E29.57882
G1 X101.708 Y84.715 E29.62233
G1 X104.086 Y84.907 E29.69174
G1 X134.591 Y89.523 E30.58948
G1 X136.578 Y90.178 E30.65035
G1 X137.671 Y90.699 E30.68557
G1 X138.749 Y91.342 E30.72208
G1 X140.410 Y92.617 E30.78302
G1 X141.286 Y93.454 E30.81829
G1 X142.207 Y94.487 E30.85855
G1 X143.405 Y96.119 E30.91746
G1 X144.600 Y98.185 E30.98691
G1 X145.721 Y100.753 E31.06845
G1 X146.387 Y102.778 E31.13047
G1 X147.039 Y105.557 E31.21353
G1 X147.361 Y107.716 E31.27704
G1 X147.558 Y110.657 E31.36280
G1 X147.489 Y113.642 E31.44970
G1 X147.157 Y116.575 E31.53559
G1 X146.760 Y118.627 E31.59641
G1 X145.988 Y121.372 E31.67936
G1 X145.237 Y123.332 E31.74043
G1 X144.015 Y125.759 E31.81950
G1 X142.836 Y127.562 E31.88219
G1 X141.451 Y129.231 E31.94529
G1 X139.935 Y130.649 E32.00571
G1 X138.615 Y131.611 E32.05323
G1 X136.917 Y132.539 E32.10953
G1 X135.232 Y133.164 E32.16183
G1 X133.367 Y133.554 E32.21726
G1 X102.611 Y135.194 E33.11347
G1 X101.124 Y135.214 E33.15672
G1 X99.562 Y135.076 E33.20236
G1 X97.903 Y134.746 E33.25157
G1 X96.260 Y134.223 E33.30175
G1 X94.593 Y133.482 E33.35483
G1 X93.144 Y132.650 E33.40346
G1 X91.661 Y131.592 E33.45645
G1 X89.882 Y130.001 E33.52590
G1 X88.637 Y128.631 E33.57977
G1 X87.555 Y127.218 E33.63155
G1 X86.508 Y125.592 E33.68782
G1 X85.064 Y122.759 E33.78035
G1 X84.301 Y120.828 E33.84075
G1 X83.694 Y118.913 E33.89923
G1 X82.960 Y115.682 E33.99561
G1 X82.670 Y113.629 E34.05596
G1 X82.509 Y111.572 E34.11601
G1 X82.518 Y108.237 E34.21304
G1 X82.687 Y106.194 E34.27268
G1 X82.988 Y104.121 E34.33364
G1 X83.416 Y102.083 E34.39423
G1 X83.950 Y100.162 E34.45225
G1 X85.091 Y97.112 E34.54700
G1 X85.944 Y95.351 E34.60394
G1 X86.827 Y93.824 E34.65526
G1 X87.775 Y92.423 E34.70448
G1 X88.825 Y91.093 E34.75380
G1 X89.961 Y89.862 E34.80252
G1 X91.097 Y88.813 E34.84751
G1 F7200.000
G1 X92.305 Y87.925 E34.37251
G1 E34.34751 F2400.00000
G92 E0
G1 X125.138 Y105.825 F9000.000
G1 E0.50000 F2460.00000
G1 F2520.000
G1 X125.583 Y104.978 E0.52784
G1 X126.092 Y104.190 E0.55515
G1 X126.668 Y103.462 E0.58213
G1 X127.304 Y102.813 E0.60859
G1 X127.990 Y102.252 E0.63439
G1 X128.571 Y101.870 E0.65461
G1 X129.338 Y101.475 E0.67971
G1 X130.147 Y101.182 E0.70474
G1 X130.981 Y101.001 E0.72958
G1 X131.733 Y100.942 E0.75153
G1 X132.204 Y100.951 E0.76524
G1 X132.592 Y100.987 E0.77658
G1 X133.302 Y101.119 E0.79758
G1 X133.876 Y101.288 E0.81501
G1 X134.248 Y101.431 E0.82658
G1 X134.908 Y101.750 E0.84793
G1 X135.431 Y102.068 E0.86573
G1 X135.757 Y102.299 E0.87737
G1 X136.342 Y102.783 E0.89946
G1 X136.792 Y103.226 E0.91784
G1 X137.068 Y103.532 E0.92981
G1 X137.561 Y104.155 E0.95293
G1 X138.133 Y105.042 E0.98364
G1 X138.521 Y105.781 E1.00792
G1 X138.857 Y106.557 E1.03255
G1 X139.215 Y107.607 E1.06480
G1 X139.431 Y108.454 E1.09024
G1 X139.637 Y109.630 E1.12499
G1 X139.727 Y110.570 E1.15247
G1 X139.752 Y111.512 E1.17989
G1 X139.715 Y112.453 E1.20729
G1 X139.615 Y113.387 E1.23460
G1 X139.453 Y114.305 E1.26175
G1 X139.231 Y115.195 E1.28843
G1 X139.093 Y115.647 E1.30219
G1 X138.838 Y116.350 E1.32393
G1 X138.476 Y117.168 E1.34997
G1 X138.056 Y117.946 E1.37569
G1 X137.581 Y118.674 E1.40099
G1 X137.053 Y119.346 E1.42587
G1 X136.472 Y119.956 E1.45038
G1 X135.845 Y120.493 E1.47440
G1 X135.296 Y120.876 E1.49386
G1 X134.931 Y121.093 E1.50623
G1 X134.258 Y121.420 E1.52800
G1 X133.561 Y121.667 E1.54952
G1 X133.177 Y121.766 E1.56105
G1 X132.583 Y121.872 E1.57861
G1 X131.840 Y121.921 E1.60029
G1 X131.097 Y121.875 E1.62193
G1 X130.502 Y121.770 E1.63953
G1 X130.117 Y121.671 E1.65108
G1 X129.419 Y121.423 E1.67262
G1 X128.741 Y121.092 E1.69459
G1 X128.213 Y120.768 E1.71263
G1 X127.882 Y120.532 E1.72446
G1 X127.290 Y120.037 E1.74690
G1 X126.737 Y119.473 E1.76987
G1 X126.321 Y118.974 E1.78879
G1 X126.069 Y118.635 E1.80106
G1 X125.624 Y117.951 E1.82481
G1 X125.134 Y117.030 E1.85518
G1 X124.755 Y116.135 E1.88345
G1 X124.506 Y115.402 E1.90598
G1 X124.253 Y114.441 E1.93490
G1 X124.073 Y113.456 E1.96403
G1 X123.997 Y112.833 E1.98228
G1 X123.949 Y112.211 E2.00044
G1 X123.926 Y111.425 E2.02331
G1 X123.948 Y110.639 E2.04620
G1 X123.996 Y110.017 E2.06437
G1 X124.073 Y109.393 E2.08265
G1 X124.255 Y108.412 E2.11169
G1 X124.450 Y107.654 E2.13446
G1 X124.759 Y106.721 E2.16306
G1 X125.115 Y105.880 E2.18962
G1 X125.461 Y105.978 F9000.000
G1 F2520.000
G1 X125.892 Y105.158 E2.21656
G1 X126.383 Y104.398 E2.24291
G1 X126.936 Y103.699 E2.26884
G1 X127.545 Y103.077 E2.29417
G1 X128.202 Y102.540 E2.31886
G1 X128.751 Y102.178 E2.33799
G1 X129.481 Y101.803 E2.36187
G1 X130.246 Y101.526 E2.38554
G1 X131.033 Y101.355 E2.40898
G1 X131.743 Y101.299 E2.42971
G1 X132.184 Y101.308 E2.44254
