; generated by PrusaSlicer 2.2.0+ on 2020-10-31 at 20:00:12 UTC

; 

; external perimeters extrusion width = 0.68mm
; perimeters extrusion width = 0.68mm
; infill extrusion width = 0.68mm
; solid infill extrusion width = 0.68mm
; top infill extrusion width = 0.60mm

M73 P0 R287
M201 X1250 Y1250 Z400 E5000 ; sets maximum accelerations, mm/sec^2
M203 X180 Y180 Z12 E80 ; sets maximum feedrates, mm/sec
M204 P1250 R1250 T1250 ; sets acceleration (P, T) and retract acceleration (R), mm/sec^2
M205 X6.00 Y6.00 Z0.20 E2.50 ; sets the jerk limits, mm/sec
M205 S0 T0 ; sets the minimum extruding and travel feed rate, mm/sec
M107
G28 ; home all axes
M420 S ; turn on manual mesh leveling
M117 Purge extruder
G92 E0 ; Reset extruder
M190 S60 ; Wait for bed final temp
M104 S205 ; Set extruder final temp
M109 S205 ; Wait for extruder final temp
G1 Z1.0 F3000 ; Move z up little to prevent scratching of the bed
G1 X2 Y20 Z0.3 F5000.0 ; Move to start-line position
G1 X2 Y200.0 Z0.3 F1500.0 E15 ; Draw 1st line
M73 P0 R287
G1 X3 Y200.0 Z0.3 F5000.0 ; Move to side a little
G1 X3 Y20 Z0.3 F1500.0 E30 ; Draw 2nd line
; G1 E27 F3000 ; Retract filament 3mm
G92 E0 ; Reset extruder
; Finish Purge Operation
G1 Z1.0 F3000 ; Move z up little to prevent scratching of the bed

; Set linear advance
M900 K0.04
G21 ; set units to millimeters
G90 ; use absolute coordinates
M83 ; use relative distances for extrusion
; Filament gcode
;BEFORE_LAYER_CHANGE
;G92 E0.0
;0.2


G1 E-1.20000 F2100.00000
G1 Z0.200 F9000.000
;AFTER_LAYER_CHANGE
;0.2
G1 X20.259 Y10.126
G1 E1.20000 F1800.00000
G1 F2100.000
G1 X21.392 Y9.491 E0.06826
G1 X22.498 Y9.126 E0.06121
G1 X23.656 Y8.996 E0.06121
G1 X276.305 Y8.996 E13.27864
G1 X277.394 Y9.104 E0.05753
G1 X278.448 Y9.422 E0.05784
G1 X279.550 Y9.998 E0.06537
G1 X280.429 Y10.698 E0.05907
G1 X281.142 Y11.544 E0.05815
G1 X281.676 Y12.513 E0.05815
G1 X282.010 Y13.567 E0.05815
G1 X282.132 Y14.667 E0.05815
G1 X282.132 Y281.099 E14.00304
G1 X281.895 Y283.182 E0.11019
G1 X281.524 Y284.436 E0.06874
G1 X280.749 Y286.144 E0.09854
G1 X279.404 Y287.950 E0.11837
G1 X278.759 Y288.577 E0.04730
G1 X277.692 Y289.403 E0.07087
G1 X276.446 Y290.130 E0.07586
G1 X274.426 Y290.877 E0.11315
G1 X272.010 Y291.173 E0.12793
G1 X27.941 Y291.172 E12.82769
G1 X25.858 Y290.936 E0.11019
G1 X24.604 Y290.565 E0.06873
G1 X22.897 Y289.790 E0.09854
G1 X21.091 Y288.444 E0.11838
G1 X20.463 Y287.799 E0.04730
G1 X19.641 Y286.738 E0.07056
G1 X18.913 Y285.491 E0.07586
G1 X18.165 Y283.473 E0.11315
G1 X17.868 Y281.074 E0.12701
G1 X17.868 Y14.703 E13.99984
G1 X17.969 Y13.672 E0.05447
G1 X18.255 Y12.682 E0.05416
G1 X18.716 Y11.760 E0.05416
G1 X19.341 Y10.934 E0.05447
G1 X20.192 Y10.186 E0.05955
G1 F7200.000
G1 X21.392 Y9.491 E-0.38428
G1 X22.498 Y9.126 E-0.32271
G1 X23.656 Y8.996 E-0.32271
G1 X24.054 Y8.996 E-0.11030
G1 E-0.06000 F2100.00000
G1 X148.679 Y277.903 F9000.000
G1 E1.20000 F1800.00000
G1 F540.000
G1 X149.316 Y277.639 E0.03624
G1 X150.000 Y277.549 E0.03624
G1 X150.684 Y277.639 E0.03624
G1 X151.321 Y277.903 E0.03624
G1 X151.868 Y278.323 E0.03624
G1 X152.287 Y278.870 E0.03624
G1 X152.551 Y279.507 E0.03624
G1 X152.641 Y280.191 E0.03624
G1 X152.551 Y280.874 E0.03624
G1 X152.287 Y281.511 E0.03624
G1 X151.868 Y282.058 E0.03624
G1 X151.321 Y282.478 E0.03624
G1 X150.684 Y282.742 E0.03624
G1 X150.000 Y282.832 E0.03624
G1 X149.316 Y282.742 E0.03624
G1 X148.679 Y282.478 E0.03624
G1 X148.132 Y282.058 E0.03624
G1 X147.713 Y281.511 E0.03624
G1 X147.449 Y280.874 E0.03624
G1 X147.359 Y280.191 E0.03624
G1 X147.449 Y279.507 E0.03624
G1 X147.713 Y278.870 E0.03624
G1 X148.132 Y278.323 E0.03624
G1 X148.608 Y277.958 E0.03151
G1 X148.679 Y277.303 F9000.000
G1 F7200.000
G1 X149.316 Y277.639 E-0.21524
G1 X150.000 Y277.549 E-0.19105
G1 X150.684 Y277.639 E-0.19105
G1 X151.321 Y277.903 E-0.19105
G1 X151.868 Y278.323 E-0.19105
G1 X152.220 Y278.783 E-0.16056
G1 E-0.06000 F2100.00000
G1 X257.359 Y280.191 F9000.000
G1 E1.20000 F1800.00000
G1 F540.000
G1 X257.449 Y279.507 E0.03624
G1 X257.662 Y278.991 E0.02932
G1 X257.713 Y278.870 E0.00691
G1 X258.132 Y278.323 E0.03624
G1 X258.679 Y277.903 E0.03624
G1 X259.316 Y277.639 E0.03624
G1 X260.000 Y277.549 E0.03624
G1 X260.684 Y277.639 E0.03624
G1 X261.321 Y277.903 E0.03624
G1 X261.868 Y278.323 E0.03624
G1 X262.287 Y278.870 E0.03624
G1 X262.551 Y279.507 E0.03624
G1 X262.641 Y280.191 E0.03624
G1 X262.551 Y280.874 E0.03624
G1 X262.287 Y281.511 E0.03624
G1 X261.868 Y282.058 E0.03624
G1 X261.321 Y282.478 E0.03624
G1 X260.684 Y282.742 E0.03624
G1 X260.000 Y282.832 E0.03624
G1 X259.316 Y282.742 E0.03624
G1 X258.679 Y282.478 E0.03624
G1 X258.132 Y282.058 E0.03624
G1 X257.713 Y281.511 E0.03624
G1 X257.449 Y280.874 E0.03624
G1 X257.370 Y280.280 E0.03151
G1 X256.839 Y279.891 F9000.000
G1 F7200.000
G1 X257.449 Y279.507 E-0.21524
G1 X257.662 Y278.991 E-0.15460
G1 X257.713 Y278.870 E-0.03645
G1 X258.132 Y278.323 E-0.19105
G1 X258.679 Y277.903 E-0.19105
G1 X259.316 Y277.639 E-0.19105
G1 X259.891 Y277.564 E-0.16055
G1 E-0.06000 F2100.00000
G1 X258.248 Y277.437 F9000.000
G1 E1.20000 F1800.00000
G1 F1350.000
G1 X257.682 Y277.872 E0.03752
G1 X257.160 Y278.551 E0.04499
G1 X256.833 Y279.342 E0.04499
G1 X256.721 Y280.191 E0.04499
G1 X256.833 Y281.039 E0.04499
G1 X257.160 Y281.830 E0.04499
G1 X257.682 Y282.509 E0.04499
G1 X258.361 Y283.030 E0.04499
G1 X259.151 Y283.358 E0.04499
G1 X260.000 Y283.469 E0.04499
G1 X260.849 Y283.358 E0.04499
G1 X261.639 Y283.030 E0.04499
G1 X262.318 Y282.509 E0.04499
G1 X262.840 Y281.830 E0.04499
G1 X263.167 Y281.039 E0.04499
G1 X263.279 Y280.191 E0.04499
G1 X263.167 Y279.342 E0.04499
G1 X262.840 Y278.551 E0.04499
G1 X262.318 Y277.872 E0.04499
G1 X261.752 Y277.437 E0.03752
G1 X261.839 Y277.180 E0.01428
G1 X265.040 Y277.180 E0.16823
G1 X267.111 Y277.024 E0.10912
G1 X269.173 Y276.550 E0.11125
G1 X271.140 Y275.772 E0.11115
G1 X272.978 Y274.701 E0.11182
G1 X274.619 Y273.381 E0.11072
G1 X275.435 Y272.494 E0.06331
G1 X275.430 Y280.973 E0.44560
G1 X275.311 Y281.904 E0.04937
G1 X274.948 Y282.782 E0.04992
G1 X274.406 Y283.479 E0.04641
G1 X273.741 Y283.988 E0.04399
G1 X272.887 Y284.348 E0.04874
G1 X271.932 Y284.471 E0.05058
G1 X28.068 Y284.471 E12.81695
G1 X27.136 Y284.351 E0.04935
G1 X26.259 Y283.988 E0.04992
G1 X25.594 Y283.479 E0.04399
G1 X25.052 Y282.782 E0.04641
G1 X24.692 Y281.927 E0.04874
G1 X24.570 Y280.973 E0.05059
G1 X24.565 Y272.494 E0.44560
G1 X25.381 Y273.381 E0.06331
G1 X27.022 Y274.701 E0.11072
G1 X28.860 Y275.772 E0.11182
G1 X30.827 Y276.550 E0.11115
G1 X32.889 Y277.024 E0.11125
G1 X34.960 Y277.180 E0.10912
M73 P0 R286
G1 X38.161 Y277.180 E0.16823
G1 X38.248 Y277.437 E0.01428
G1 X37.682 Y277.872 E0.03752
G1 X37.160 Y278.551 E0.04499
G1 X36.833 Y279.342 E0.04499
G1 X36.721 Y280.191 E0.04499
G1 X36.833 Y281.039 E0.04499
G1 X37.160 Y281.830 E0.04499
G1 X37.682 Y282.509 E0.04499
G1 X38.361 Y283.030 E0.04499
G1 X39.151 Y283.358 E0.04499
G1 X40.000 Y283.469 E0.04499
G1 X40.849 Y283.358 E0.04499
G1 X41.639 Y283.030 E0.04499
G1 X42.318 Y282.509 E0.04499
G1 X42.840 Y281.830 E0.04499
G1 X43.167 Y281.039 E0.04499
G1 X43.279 Y280.191 E0.04499
G1 X43.167 Y279.342 E0.04499
G1 X42.840 Y278.551 E0.04499
G1 X42.318 Y277.872 E0.04499
G1 X41.752 Y277.437 E0.03752
G1 X41.839 Y277.180 E0.01428
G1 X148.161 Y277.180 E5.58799
G1 X148.248 Y277.437 E0.01428
G1 X147.682 Y277.872 E0.03752
G1 X147.160 Y278.551 E0.04499
G1 X146.833 Y279.342 E0.04499
G1 X146.721 Y280.191 E0.04499
G1 X146.833 Y281.039 E0.04499
G1 X147.160 Y281.830 E0.04499
G1 X147.682 Y282.509 E0.04499
G1 X148.361 Y283.030 E0.04499
G1 X149.151 Y283.358 E0.04499
G1 X150.000 Y283.469 E0.04499
G1 X150.849 Y283.358 E0.04499
G1 X151.047 Y283.275 E0.01129
G1 X151.639 Y283.030 E0.03370
G1 X152.318 Y282.509 E0.04499
G1 X152.840 Y281.830 E0.04499
G1 X153.167 Y281.039 E0.04499
G1 X153.279 Y280.191 E0.04499
G1 X153.167 Y279.342 E0.04499
G1 X152.840 Y278.551 E0.04499
G1 X152.318 Y277.872 E0.04499
G1 X151.752 Y277.437 E0.03752
G1 X151.839 Y277.180 E0.01428
G1 X258.161 Y277.180 E5.58799
G1 X258.219 Y277.352 E0.00955
G1 F7200.000
G1 X257.682 Y277.872 E-0.20718
G1 X257.160 Y278.551 E-0.23717
G1 X256.833 Y279.342 E-0.23717
G1 X256.721 Y280.191 E-0.23717
G1 X256.825 Y280.982 E-0.22131
G1 E-0.06000 F2100.00000
G1 X42.641 Y280.191 F9000.000
G1 E1.20000 F1800.00000
G1 F540.000
G1 X42.551 Y280.874 E0.03624
G1 X42.338 Y281.390 E0.02932
G1 X42.287 Y281.511 E0.00691
G1 X41.868 Y282.058 E0.03624
G1 X41.321 Y282.478 E0.03624
G1 X40.684 Y282.742 E0.03624
G1 X40.000 Y282.832 E0.03624
G1 X39.316 Y282.742 E0.03624
G1 X38.679 Y282.478 E0.03624
G1 X38.132 Y282.058 E0.03624
G1 X37.713 Y281.511 E0.03624
G1 X37.449 Y280.874 E0.03624
G1 X37.359 Y280.191 E0.03624
G1 X37.449 Y279.507 E0.03624
G1 X37.713 Y278.870 E0.03624
G1 X38.132 Y278.323 E0.03624
G1 X38.679 Y277.903 E0.03624
G1 X39.316 Y277.639 E0.03624
G1 X40.000 Y277.549 E0.03624
G1 X40.684 Y277.639 E0.03624
G1 X41.321 Y277.903 E0.03624
G1 X41.868 Y278.323 E0.03624
G1 X42.287 Y278.870 E0.03624
G1 X42.551 Y279.507 E0.03624
G1 X42.630 Y280.101 E0.03151
G1 X43.161 Y280.491 F9000.000
G1 F7200.000
G1 X42.551 Y280.874 E-0.21524
G1 X42.338 Y281.390 E-0.15460
G1 X42.287 Y281.511 E-0.03645
G1 X41.868 Y282.058 E-0.19105
G1 X41.321 Y282.478 E-0.19105
G1 X40.684 Y282.742 E-0.19105
G1 X40.109 Y282.817 E-0.16056
G1 E-0.06000 F2100.00000
G1 X24.111 Y270.759 F9000.000
G1 E1.20000 F1800.00000
G1 F945.000
G1 X24.505 Y271.336 E0.03674
G1 X24.675 Y271.638 E0.01820
G1 X24.957 Y271.987 E0.02360
G1 X25.814 Y272.918 E0.06647
G1 X27.385 Y274.183 E0.10605
G1 X29.136 Y275.202 E0.10643
G1 X31.015 Y275.945 E0.10620
G1 X32.985 Y276.397 E0.10623
G1 X34.984 Y276.548 E0.10536
G1 X265.016 Y276.548 E12.08998
G1 X267.015 Y276.397 E0.10536
G1 X268.985 Y275.945 E0.10623
G1 X270.864 Y275.202 E0.10620
G1 X272.615 Y274.183 E0.10643
G1 X274.186 Y272.918 E0.10605
G1 X275.043 Y271.987 E0.06647
G1 X275.325 Y271.638 E0.02360
G1 X275.495 Y271.336 E0.01820
G1 X275.895 Y270.750 E0.03730
G1 X276.162 Y270.833 E0.01470
G1 X276.152 Y271.599 E0.04027
G1 X276.093 Y272.090 E0.02599
G1 X276.067 Y272.606 E0.02714
G1 X276.063 Y281.013 E0.44188
G1 X275.927 Y282.066 E0.05576
G1 X275.535 Y283.035 E0.05496
G1 X274.915 Y283.864 E0.05441
G1 X274.823 Y283.955 E0.00679
G1 X273.993 Y284.577 E0.05449
G1 X273.033 Y284.967 E0.05448
G1 X271.973 Y285.103 E0.05618
G1 X28.027 Y285.103 E12.82120
G1 X26.975 Y284.968 E0.05576
G1 X26.005 Y284.576 E0.05497
G1 X25.897 Y284.508 E0.00671
G1 X25.177 Y283.955 E0.04772
G1 X25.085 Y283.864 E0.00679
G1 X24.533 Y283.143 E0.04773
G1 X24.464 Y283.034 E0.00679
G1 X24.074 Y282.074 E0.05448
G1 X23.937 Y281.013 E0.05619
G1 X23.933 Y272.606 E0.44188
G1 X23.907 Y272.090 E0.02714
G1 X23.848 Y271.601 E0.02586
G1 X23.843 Y270.843 E0.03987
G1 X24.025 Y270.786 E0.01003
G1 X24.287 Y271.332 F9000.000
G1 F7200.000
G1 X24.505 Y271.336 E-0.20236
G1 X24.675 Y271.638 E-0.09596
G1 X24.957 Y271.987 E-0.12440
G1 X25.814 Y272.918 E-0.35045
G1 X26.845 Y273.748 E-0.36683
G1 E-0.06000 F2100.00000
G1 X27.981 Y284.205 F9000.000
G1 E1.20000 F1800.00000
G1 F900.000
G1 X25.165 Y281.389 E0.20992
G1 X25.107 Y280.938 E0.02397
G1 X25.106 Y280.434 E0.02656
G1 X28.606 Y283.934 E0.26090
G1 X29.503 Y283.934 E0.04726
G1 X25.106 Y279.537 E0.32777
G1 X25.105 Y278.640 E0.04729
G1 X30.399 Y283.934 E0.39465
G1 X31.296 Y283.934 E0.04726
G1 X25.105 Y277.743 E0.46153
G1 X25.104 Y276.846 E0.04729
G1 X32.192 Y283.934 E0.52841
G1 X33.089 Y283.934 E0.04726
G1 X25.104 Y275.949 E0.59529
G1 X25.103 Y275.052 E0.04729
G1 X33.986 Y283.934 E0.66217
G1 X34.882 Y283.934 E0.04726
G1 X25.103 Y274.155 E0.72905
G1 X25.103 Y273.847 E0.01623
G1 X26.716 Y275.145 E0.10918
G1 X27.372 Y275.527 E0.04004
G1 X35.779 Y283.934 E0.62669
G1 X36.675 Y283.934 E0.04726
G1 X29.243 Y276.502 E0.55407
G1 X30.713 Y277.075 E0.08318
G1 X37.572 Y283.934 E0.51132
G1 X37.739 Y283.934 E0.00879
G1 X37.823 Y283.295 E0.03397
G1 X37.298 Y282.892 E0.03487
G1 X36.874 Y282.340 E0.03671
G1 X31.877 Y277.343 E0.37255
G1 X32.809 Y277.557 E0.05038
G1 X33.003 Y277.571 E0.01025
G1 X36.264 Y280.833 E0.24313
G1 X36.179 Y280.191 E0.03413
G1 X36.219 Y279.891 E0.01593
G1 X33.972 Y277.644 E0.16748
G1 X34.942 Y277.717 E0.05125
G1 X36.344 Y279.119 E0.10451
G1 X36.606 Y278.485 E0.03617
G1 X35.838 Y277.717 E0.05724
G1 X36.735 Y277.717 E0.04726
G1 X37.157 Y278.140 E0.03149
G1 F7200.000
G1 X36.735 Y277.717 E-0.16554
G1 X35.838 Y277.717 E-0.24843
G1 X36.606 Y278.485 E-0.30089
G1 X36.344 Y279.119 E-0.19014
G1 X35.744 Y278.519 E-0.23501
G1 E-0.06000 F2100.00000
G1 X38.498 Y277.192 F9000.000
G1 E1.20000 F1800.00000
M73 P0 R285
G1 F900.000
G1 X39.203 Y277.099 E0.02775
G1 X39.503 Y277.079 E0.01172
G1 X40.024 Y277.048 E0.01597
G1 X40.282 Y277.065 E0.00862
G1 X40.539 Y277.082 E0.00935
G1 X40.797 Y277.099 E0.01007
G1 X41.502 Y277.192 E0.02872
G1 F7200.000
G1 X40.797 Y277.099 E-0.19702
G1 E-1.00298 F2100.00000
G1 X38.297 Y283.811 F9000.000
G1 E1.20000 F1800.00000
G1 F900.000
G1 X39.037 Y283.909 E0.03051
G1 X39.350 Y283.930 E0.01282
G1 X40.024 Y283.971 E0.02069
G1 X40.337 Y283.950 E0.01068
G1 X40.650 Y283.930 E0.01175
G1 X40.963 Y283.909 E0.01282
G1 X41.703 Y283.811 E0.03158
G1 X42.090 Y283.003 F9000.000
G1 F900.000
G1 X43.020 Y283.934 E0.06971
G1 X43.921 Y283.934 E0.04773
G1 X42.779 Y282.792 E0.08557
G1 X43.170 Y282.282 E0.03404
G1 X44.822 Y283.934 E0.12377
G1 X45.723 Y283.934 E0.04773
G1 X43.479 Y281.690 E0.16812
G1 X43.690 Y281.179 E0.02927
G1 X43.711 Y281.021 E0.00846
G1 X46.624 Y283.934 E0.21822
G1 X47.525 Y283.934 E0.04773
G1 X43.816 Y280.225 E0.27787
G1 X43.688 Y279.196 E0.05495
G1 X48.426 Y283.934 E0.35498
G1 X49.327 Y283.934 E0.04773
G1 X43.111 Y277.717 E0.46573
G1 X44.012 Y277.717 E0.04773
G1 X50.228 Y283.934 E0.46573
G1 X51.129 Y283.934 E0.04773
G1 X44.913 Y277.717 E0.46573
G1 X45.814 Y277.717 E0.04773
G1 X52.030 Y283.934 E0.46573
G1 X52.931 Y283.934 E0.04773
G1 X46.715 Y277.717 E0.46573
G1 X47.616 Y277.717 E0.04773
G1 X53.832 Y283.934 E0.46573
G1 X54.733 Y283.934 E0.04773
G1 X48.517 Y277.717 E0.46573
G1 X49.418 Y277.717 E0.04773
G1 X55.634 Y283.934 E0.46573
G1 X56.535 Y283.934 E0.04773
G1 X50.319 Y277.717 E0.46573
G1 X51.220 Y277.717 E0.04773
G1 X57.436 Y283.934 E0.46573
G1 X58.337 Y283.934 E0.04773
G1 X52.121 Y277.717 E0.46573
G1 X53.022 Y277.717 E0.04773
G1 X59.238 Y283.934 E0.46573
G1 X60.139 Y283.934 E0.04773
G1 X53.923 Y277.717 E0.46573
G1 X54.824 Y277.717 E0.04773
G1 X61.040 Y283.934 E0.46573
G1 X61.941 Y283.934 E0.04773
G1 X55.725 Y277.717 E0.46573
G1 X56.626 Y277.717 E0.04773
G1 X62.842 Y283.934 E0.46573
G1 X63.743 Y283.934 E0.04773
G1 X57.527 Y277.717 E0.46573
G1 X58.428 Y277.717 E0.04773
G1 X64.644 Y283.934 E0.46573
G1 X65.546 Y283.934 E0.04773
G1 X59.329 Y277.717 E0.46573
G1 X60.230 Y277.717 E0.04773
G1 X66.447 Y283.934 E0.46573
G1 X67.348 Y283.934 E0.04773
G1 X61.131 Y277.717 E0.46573
G1 X62.032 Y277.717 E0.04773
G1 X68.249 Y283.934 E0.46573
G1 X69.150 Y283.934 E0.04773
G1 X62.933 Y277.717 E0.46573
G1 X63.834 Y277.717 E0.04773
G1 X70.051 Y283.934 E0.46573
G1 X70.952 Y283.934 E0.04773
G1 X64.735 Y277.717 E0.46573
G1 X65.636 Y277.717 E0.04773
G1 X71.853 Y283.934 E0.46573
G1 X72.754 Y283.934 E0.04773
G1 X66.537 Y277.717 E0.46573
G1 X67.438 Y277.717 E0.04773
G1 X73.655 Y283.934 E0.46573
G1 X74.556 Y283.934 E0.04773
G1 X68.339 Y277.717 E0.46573
G1 X69.240 Y277.717 E0.04773
G1 X75.457 Y283.934 E0.46573
G1 X76.358 Y283.934 E0.04773
G1 X70.141 Y277.717 E0.46573
G1 X71.042 Y277.717 E0.04773
G1 X77.259 Y283.934 E0.46573
G1 X78.160 Y283.934 E0.04773
G1 X71.943 Y277.717 E0.46573
G1 X72.845 Y277.717 E0.04773
G1 X79.061 Y283.934 E0.46573
G1 X79.962 Y283.934 E0.04773
G1 X73.746 Y277.717 E0.46573
G1 X74.647 Y277.717 E0.04773
G1 X80.863 Y283.934 E0.46573
G1 X81.764 Y283.934 E0.04773
G1 X75.548 Y277.717 E0.46573
G1 X76.449 Y277.717 E0.04773
G1 X82.665 Y283.934 E0.46573
G1 X83.566 Y283.934 E0.04773
G1 X77.350 Y277.717 E0.46573
G1 X78.251 Y277.717 E0.04773
G1 X84.467 Y283.934 E0.46573
G1 X85.368 Y283.934 E0.04773
G1 X79.152 Y277.717 E0.46573
G1 X80.053 Y277.717 E0.04773
G1 X86.269 Y283.934 E0.46573
G1 X87.170 Y283.934 E0.04773
G1 X80.954 Y277.717 E0.46573
G1 X81.855 Y277.717 E0.04773
G1 X88.071 Y283.934 E0.46573
