; generated by PrusaSlicer 2.2.0+ on 2020-10-09 at 11:29:22 UTC

; 

; external perimeters extrusion width = 0.68mm
; perimeters extrusion width = 0.68mm
; infill extrusion width = 0.68mm
; solid infill extrusion width = 0.68mm
; top infill extrusion width = 0.60mm

; external perimeters extrusion width = 0.68mm
; perimeters extrusion width = 0.68mm
; infill extrusion width = 0.68mm
; solid infill extrusion width = 0.68mm
; top infill extrusion width = 0.60mm

M73 P0 R223
M201 X1250 Y1250 Z400 E5000 ; sets maximum accelerations, mm/sec^2
M203 X180 Y180 Z12 E80 ; sets maximum feedrates, mm/sec
M204 P1250 R1250 T1250 ; sets acceleration (P, T) and retract acceleration (R), mm/sec^2
M205 X6.00 Y6.00 Z0.20 E2.50 ; sets the jerk limits, mm/sec
M205 S0 T0 ; sets the minimum extruding and travel feed rate, mm/sec
M107
G28 ; home all axes
M420 S ; turn on manual mesh leveling
M117 Purge extruder
G92 E0 ; Reset extruder
M190 S80 ; Wait for bed final temp
M104 S240 ; Set extruder final temp
M109 S240 ; Wait for extruder final temp
G1 Z1.0 F3000 ; Move z up little to prevent scratching of the bed
G1 X2 Y20 Z0.3 F5000.0 ; Move to start-line position
G1 X2 Y200.0 Z0.3 F1500.0 E15 ; Draw 1st line
M73 P0 R223
G1 X3 Y200.0 Z0.3 F5000.0 ; Move to side a little
G1 X3 Y20 Z0.3 F1500.0 E30 ; Draw 2nd line
; G1 E27 F3000 ; Retract filament 3mm
G92 E0 ; Reset extruder
; Finish Purge Operation
G1 Z1.0 F3000 ; Move z up little to prevent scratching of the bed

; Set linear advance
M900 K0.04
G21 ; set units to millimeters
G90 ; use absolute coordinates
M83 ; use relative distances for extrusion
; Filament gcode
;BEFORE_LAYER_CHANGE
;G92 E0.0
;0.2


G1 E-1.20000 F2100.00000
G1 Z0.200 F9000.000
;AFTER_LAYER_CHANGE
;0.2
G1 X27.894 Y125.371
G1 E1.20000 F1800.00000
G1 F2100.000
G1 X29.317 Y124.204 E0.09670
G1 X30.080 Y123.710 E0.04780
G1 X31.725 Y122.997 E0.09420
G1 X32.758 Y122.708 E0.05642
G1 X34.809 Y122.480 E0.10844
G1 X272.820 Y122.480 E12.50927
G1 X274.854 Y122.705 E0.10758
G1 X276.062 Y123.059 E0.06615
G1 X277.807 Y123.862 E0.10096
G1 X279.625 Y125.264 E0.12069
G1 X280.919 Y126.847 E0.10746
G1 X281.542 Y127.942 E0.06621
G1 X282.245 Y129.813 E0.10503
G1 X282.541 Y131.991 E0.11551
G1 X282.546 Y165.247 E1.74789
G1 X282.320 Y167.258 E0.10635
G1 X282.033 Y168.291 E0.05633
G1 X281.329 Y169.922 E0.09335
G1 X280.846 Y170.677 E0.04715
G1 X279.721 Y172.066 E0.09391
G1 X278.301 Y173.227 E0.09640
G1 X277.542 Y173.717 E0.04750
G1 X275.903 Y174.427 E0.09390
G1 X274.869 Y174.717 E0.05642
G1 X272.818 Y174.944 E0.10845
G1 X34.644 Y174.942 E12.51789
G1 X32.756 Y174.717 E0.09991
G1 X31.647 Y174.398 E0.06063
G1 X29.951 Y173.641 E0.09762
G1 X28.364 Y172.485 E0.10319
G1 X27.543 Y171.665 E0.06099
G1 X26.392 Y170.089 E0.10259
G1 X25.615 Y168.345 E0.10033
G1 X25.309 Y167.268 E0.05888
G1 X25.082 Y165.212 E0.10868
G1 X25.082 Y132.177 E1.73625
G1 X25.295 Y130.236 E0.10266
G1 X25.582 Y129.167 E0.05817
G1 X26.285 Y127.529 E0.09366
G1 X26.775 Y126.756 E0.04807
G1 X27.838 Y125.441 E0.08888
G1 F7200.000
G1 X29.317 Y124.204 E-0.53426
G1 X30.080 Y123.710 E-0.25201
G1 X31.251 Y123.202 E-0.35372
G1 E-0.06000 F2100.00000
G1 X259.324 Y166.658 F9000.000
G1 E1.20000 F1800.00000
G1 F720.000
G1 X258.500 Y166.026 E0.05459
G1 X257.868 Y165.202 E0.05459
G1 X257.470 Y164.242 E0.05459
G1 X257.335 Y163.212 E0.05459
G1 X257.470 Y162.182 E0.05459
G1 X257.868 Y161.223 E0.05459
G1 X258.500 Y160.399 E0.05459
G1 X259.324 Y159.767 E0.05459
G1 X260.284 Y159.369 E0.05459
G1 X261.314 Y159.233 E0.05459
G1 X262.343 Y159.369 E0.05459
G1 X263.303 Y159.767 E0.05459
G1 X264.127 Y160.399 E0.05459
G1 X264.759 Y161.223 E0.05459
G1 X265.157 Y162.182 E0.05459
G1 X265.292 Y163.212 E0.05459
G1 X265.157 Y164.242 E0.05459
G1 X264.759 Y165.202 E0.05459
G1 X264.127 Y166.026 E0.05459
G1 X263.303 Y166.658 E0.05459
G1 X262.343 Y167.055 E0.05459
G1 X261.314 Y167.191 E0.05459
G1 X260.284 Y167.055 E0.05459
G1 X259.407 Y166.692 E0.04986
G1 X259.643 Y166.106 F9000.000
G1 F720.000
G1 X258.951 Y165.575 E0.04584
G1 X258.420 Y164.883 E0.04584
G1 X258.086 Y164.077 E0.04584
G1 X257.972 Y163.212 E0.04584
G1 X258.086 Y162.347 E0.04584
G1 X258.420 Y161.542 E0.04584
G1 X258.951 Y160.850 E0.04584
G1 X259.643 Y160.319 E0.04584
G1 X260.449 Y159.985 E0.04584
G1 X261.314 Y159.871 E0.04584
G1 X262.178 Y159.985 E0.04584
G1 X262.984 Y160.319 E0.04584
G1 X263.676 Y160.850 E0.04584
G1 X264.207 Y161.542 E0.04584
G1 X264.541 Y162.347 E0.04584
G1 X264.655 Y163.212 E0.04584
G1 X264.541 Y164.077 E0.04584
G1 X264.207 Y164.883 E0.04584
G1 X263.676 Y165.575 E0.04584
G1 X262.984 Y166.106 E0.04584
G1 X262.178 Y166.440 E0.04584
G1 X261.314 Y166.554 E0.04584
G1 X260.449 Y166.440 E0.04584
G1 X259.726 Y166.140 E0.04111
G1 X259.123 Y166.406 F9000.000
G1 F7200.000
G1 X258.951 Y165.575 E-0.26585
G1 X258.420 Y164.883 E-0.24169
G1 X258.086 Y164.077 E-0.24168
G1 X257.972 Y163.212 E-0.24169
G1 X258.043 Y162.679 E-0.14909
G1 E-0.06000 F2100.00000
G1 X265.844 Y142.992 F9000.000
G1 E1.20000 F1800.00000
G1 F720.000
G1 X265.174 Y142.715 E0.03813
G1 X264.599 Y142.273 E0.03813
G1 X264.157 Y141.698 E0.03813
G1 X263.880 Y141.027 E0.03813
G1 X263.785 Y140.308 E0.03813
G1 X263.880 Y139.589 E0.03813
G1 X264.157 Y138.919 E0.03813
G1 X264.599 Y138.343 E0.03813
G1 X265.174 Y137.902 E0.03813
G1 X265.844 Y137.624 E0.03813
G1 X266.564 Y137.529 E0.03813
G1 X267.283 Y137.624 E0.03813
G1 X267.953 Y137.902 E0.03813
G1 X268.529 Y138.343 E0.03813
G1 X268.970 Y138.919 E0.03813
G1 X269.248 Y139.589 E0.03813
G1 X269.342 Y140.308 E0.03813
G1 X269.248 Y141.027 E0.03813
G1 X268.970 Y141.698 E0.03813
G1 X268.529 Y142.273 E0.03813
G1 X267.953 Y142.715 E0.03813
G1 X267.283 Y142.992 E0.03813
G1 X266.564 Y143.087 E0.03813
G1 X265.934 Y143.004 E0.03340
G1 X266.009 Y142.377 F9000.000
G1 F720.000
G1 X265.493 Y142.163 E0.02938
G1 X265.050 Y141.822 E0.02938
G1 X264.709 Y141.379 E0.02938
G1 X264.495 Y140.862 E0.02938
G1 X264.422 Y140.308 E0.02938
G1 X264.495 Y139.754 E0.02938
G1 X264.709 Y139.238 E0.02938
G1 X265.050 Y138.794 E0.02938
G1 X265.493 Y138.454 E0.02938
G1 X266.009 Y138.240 E0.02938
G1 X266.564 Y138.167 E0.02938
G1 X267.118 Y138.240 E0.02938
G1 X267.634 Y138.454 E0.02938
G1 X268.078 Y138.794 E0.02938
G1 X268.418 Y139.238 E0.02938
G1 X268.632 Y139.754 E0.02938
G1 X268.705 Y140.308 E0.02938
G1 X268.632 Y140.862 E0.02938
G1 X268.418 Y141.379 E0.02938
G1 X268.078 Y141.822 E0.02938
G1 X267.634 Y142.163 E0.02938
G1 X267.118 Y142.377 E0.02938
G1 X266.564 Y142.450 E0.02938
G1 X266.099 Y142.388 E0.02465
G1 X265.614 Y142.772 F9000.000
G1 F7200.000
G1 X265.493 Y142.163 E-0.17909
G1 X265.050 Y141.822 E-0.15489
G1 X264.709 Y141.379 E-0.15488
G1 X264.495 Y140.862 E-0.15489
G1 X264.422 Y140.308 E-0.15489
G1 X264.495 Y139.754 E-0.15489
G1 X264.709 Y139.238 E-0.15489
G1 X264.779 Y139.147 E-0.03160
G1 E-0.06000 F2100.00000
G1 X263.303 Y137.658 F9000.000
G1 E1.20000 F1800.00000
G1 F720.000
G1 X262.343 Y138.055 E0.05459
G1 X261.314 Y138.191 E0.05459
G1 X260.284 Y138.055 E0.05459
G1 X259.324 Y137.658 E0.05459
G1 X258.500 Y137.026 E0.05459
G1 X257.868 Y136.202 E0.05459
G1 X257.470 Y135.242 E0.05459
G1 X257.335 Y134.212 E0.05459
G1 X257.470 Y133.182 E0.05459
G1 X257.868 Y132.223 E0.05459
G1 X258.500 Y131.399 E0.05459
G1 X259.324 Y130.767 E0.05459
G1 X260.284 Y130.369 E0.05459
G1 X261.314 Y130.233 E0.05459
G1 X262.343 Y130.369 E0.05459
G1 X263.303 Y130.767 E0.05459
G1 X264.127 Y131.399 E0.05459
G1 X264.759 Y132.223 E0.05459
G1 X265.157 Y133.182 E0.05459
G1 X265.292 Y134.212 E0.05459
G1 X265.157 Y135.242 E0.05459
G1 X264.759 Y136.202 E0.05459
G1 X264.127 Y137.026 E0.05459
G1 X263.374 Y137.603 E0.04986
G1 X262.984 Y137.106 F9000.000
G1 F720.000
G1 X262.178 Y137.440 E0.04584
G1 X261.314 Y137.554 E0.04584
G1 X260.449 Y137.440 E0.04584
G1 X259.643 Y137.106 E0.04584
G1 X258.951 Y136.575 E0.04584
G1 X258.420 Y135.883 E0.04584
G1 X258.086 Y135.077 E0.04584
G1 X257.972 Y134.212 E0.04584
G1 X258.086 Y133.347 E0.04584
G1 X258.420 Y132.542 E0.04584
G1 X258.951 Y131.850 E0.04584
G1 X259.643 Y131.319 E0.04584
G1 X260.449 Y130.985 E0.04584
G1 X261.314 Y130.871 E0.04584
G1 X262.178 Y130.985 E0.04584
G1 X262.984 Y131.319 E0.04584
G1 X263.676 Y131.850 E0.04584
G1 X264.207 Y132.542 E0.04584
G1 X264.541 Y133.347 E0.04584
G1 X264.655 Y134.212 E0.04584
G1 X264.541 Y135.077 E0.04584
G1 X264.207 Y135.883 E0.04584
G1 X263.676 Y136.575 E0.04584
G1 X263.056 Y137.051 E0.04111
G1 X262.984 Y137.706 F9000.000
G1 F7200.000
G1 X262.178 Y137.440 E-0.26585
G1 X261.314 Y137.554 E-0.24169
G1 X260.449 Y137.440 E-0.24169
G1 X259.643 Y137.106 E-0.24169
G1 X259.216 Y136.778 E-0.14909
G1 E-0.06000 F2100.00000
G1 X50.292 Y134.212 F9000.000
G1 E1.20000 F1800.00000
G1 F720.000
G1 X50.157 Y135.242 E0.05459
G1 X49.759 Y136.202 E0.05459
G1 X49.127 Y137.026 E0.05459
G1 X48.303 Y137.658 E0.05459
G1 X47.343 Y138.055 E0.05459
G1 X46.314 Y138.191 E0.05459
G1 X45.284 Y138.055 E0.05459
G1 X44.324 Y137.658 E0.05459
G1 X43.500 Y137.026 E0.05459
G1 X42.868 Y136.202 E0.05459
G1 X42.470 Y135.242 E0.05459
G1 X42.335 Y134.212 E0.05459
G1 X42.470 Y133.182 E0.05459
G1 X42.868 Y132.223 E0.05459
G1 X43.500 Y131.399 E0.05459
G1 X44.324 Y130.767 E0.05459
G1 X45.284 Y130.369 E0.05459
G1 X46.314 Y130.233 E0.05459
G1 X47.343 Y130.369 E0.05459
G1 X48.303 Y130.767 E0.05459
G1 X49.127 Y131.399 E0.05459
G1 X49.759 Y132.223 E0.05459
G1 X50.157 Y133.182 E0.05459
G1 X50.281 Y134.123 E0.04986
G1 X49.655 Y134.212 F9000.000
G1 F720.000
G1 X49.541 Y135.077 E0.04584
G1 X49.207 Y135.883 E0.04584
G1 X48.676 Y136.575 E0.04584
G1 X47.984 Y137.106 E0.04584
G1 X47.178 Y137.440 E0.04584
G1 X46.314 Y137.554 E0.04584
G1 X45.449 Y137.440 E0.04584
G1 X44.643 Y137.106 E0.04584
G1 X43.951 Y136.575 E0.04584
G1 X43.420 Y135.883 E0.04584
G1 X43.086 Y135.077 E0.04584
G1 X42.972 Y134.212 E0.04584
G1 X43.086 Y133.347 E0.04584
G1 X43.420 Y132.542 E0.04584
G1 X43.951 Y131.850 E0.04584
G1 X44.643 Y131.319 E0.04584
G1 X45.449 Y130.985 E0.04584
G1 X46.314 Y130.871 E0.04584
G1 X47.178 Y130.985 E0.04584
G1 X47.984 Y131.319 E0.04584
G1 X48.676 Y131.850 E0.04584
G1 X49.207 Y132.542 E0.04584
G1 X49.541 Y133.347 E0.04584
G1 X49.643 Y134.123 E0.04111
G1 X50.175 Y134.512 F9000.000
G1 F7200.000
G1 X49.541 Y135.077 E-0.26585
G1 X49.207 Y135.883 E-0.24169
G1 X48.676 Y136.575 E-0.24168
G1 X47.984 Y137.106 E-0.24169
G1 X47.487 Y137.312 E-0.14909
G1 E-0.06000 F2100.00000
G1 X49.990 Y130.446 F9000.000
G1 E1.20000 F1800.00000
G1 X257.633 Y130.452 E10.91324
G1 X256.764 Y131.585 E0.07506
G1 X256.239 Y132.852 E0.07208
G1 X256.060 Y134.212 E0.07209
G1 X256.239 Y135.572 E0.07209
G1 X256.764 Y136.839 E0.07208
G1 X257.599 Y137.927 E0.07208
G1 X258.687 Y138.762 E0.07208
G1 X259.954 Y139.287 E0.07208
G1 X261.314 Y139.466 E0.07208
G1 X262.644 Y139.291 E0.07051
G1 X262.510 Y140.308 E0.05392
G1 X262.648 Y141.357 E0.05562
G1 X263.053 Y142.335 E0.05562
G1 X263.697 Y143.175 E0.05562
G1 X264.537 Y143.819 E0.05562
G1 X265.514 Y144.224 E0.05562
G1 X266.564 Y144.362 E0.05562
G1 X267.613 Y144.224 E0.05562
G1 X268.591 Y143.819 E0.05562
G1 X269.430 Y143.175 E0.05562
G1 X270.074 Y142.335 E0.05562
G1 X270.479 Y141.357 E0.05562
G1 X270.618 Y140.308 E0.05562
G1 X270.479 Y139.259 E0.05562
G1 X270.074 Y138.281 E0.05562
G1 X269.430 Y137.442 E0.05562
G1 X268.591 Y136.797 E0.05562
G1 X267.613 Y136.392 E0.05562
G1 X266.564 Y136.254 E0.05562
G1 X266.079 Y136.318 E0.02567
G1 X266.389 Y135.572 E0.04244
G1 X266.568 Y134.212 E0.07208
G1 X266.389 Y132.852 E0.07208
G1 X265.864 Y131.585 E0.07208
G1 X264.994 Y130.453 E0.07504
G1 X272.722 Y130.453 E0.40613
G1 X273.261 Y130.524 E0.02857
G1 X273.672 Y130.693 E0.02336
G1 X274.061 Y130.992 E0.02582
G1 X274.332 Y131.350 E0.02357
G1 X274.489 Y131.727 E0.02147
G1 X274.580 Y132.374 E0.03437
G1 X274.580 Y165.050 E1.71735
G1 X274.489 Y165.698 E0.03437
G1 X274.332 Y166.075 E0.02147
G1 X274.061 Y166.432 E0.02357
G1 X273.672 Y166.732 E0.02581
G1 X273.262 Y166.900 E0.02330
G1 X272.663 Y166.979 E0.03175
G1 X264.989 Y166.979 E0.40330
G1 X265.864 Y165.839 E0.07548
G1 X266.389 Y164.572 E0.07208
G1 X266.568 Y163.212 E0.07208
G1 X266.389 Y161.852 E0.07208
G1 X265.864 Y160.585 E0.07208
G1 X265.029 Y159.497 E0.07209
G1 X263.941 Y158.662 E0.07208
G1 X262.673 Y158.137 E0.07208
G1 X261.314 Y157.958 E0.07208
G1 X259.954 Y158.137 E0.07208
G1 X258.687 Y158.662 E0.07208
G1 X257.599 Y159.497 E0.07209
G1 X256.764 Y160.585 E0.07208
G1 X256.239 Y161.852 E0.07208
G1 X256.060 Y163.212 E0.07209
G1 X256.239 Y164.572 E0.07209
G1 X256.764 Y165.839 E0.07208
G1 X257.638 Y166.979 E0.07548
G1 X49.989 Y166.979 E10.91351
M73 P0 R222
G1 X50.864 Y165.839 E0.07548
G1 X51.389 Y164.572 E0.07208
G1 X51.568 Y163.212 E0.07209
G1 X51.389 Y161.852 E0.07209
G1 X50.864 Y160.585 E0.07208
G1 X50.029 Y159.497 E0.07208
G1 X48.941 Y158.662 E0.07209
G1 X47.673 Y158.137 E0.07208
G1 X46.314 Y157.958 E0.07208
G1 X44.954 Y158.137 E0.07208
G1 X43.687 Y158.662 E0.07208
G1 X42.599 Y159.497 E0.07208
G1 X41.764 Y160.585 E0.07209
G1 X41.239 Y161.852 E0.07208
G1 X41.060 Y163.212 E0.07208
G1 X41.239 Y164.572 E0.07208
G1 X41.764 Y165.839 E0.07208
G1 X42.638 Y166.979 E0.07548
G1 X34.976 Y166.979 E0.40270
G1 X34.328 Y166.887 E0.03437
G1 X33.951 Y166.731 E0.02147
G1 X33.594 Y166.460 E0.02357
G1 X33.294 Y166.071 E0.02582
G1 X33.126 Y165.661 E0.02330
G1 X33.047 Y165.061 E0.03175
G1 X33.047 Y132.374 E1.71795
G1 X33.139 Y131.727 E0.03437
G1 X33.295 Y131.350 E0.02147
G1 X33.566 Y130.992 E0.02357
G1 X33.955 Y130.693 E0.02582
G1 X34.365 Y130.524 E0.02330
G1 X34.964 Y130.446 E0.03175
G1 X42.638 Y130.446 E0.40329
G1 X41.764 Y131.585 E0.07546
G1 X41.239 Y132.852 E0.07208
G1 X41.060 Y134.212 E0.07208
G1 X41.239 Y135.572 E0.07208
G1 X41.548 Y136.318 E0.04244
G1 X41.064 Y136.254 E0.02567
G1 X40.014 Y136.392 E0.05562
G1 X39.037 Y136.797 E0.05562
G1 X38.197 Y137.442 E0.05562
G1 X37.553 Y138.281 E0.05562
G1 X37.148 Y139.259 E0.05562
G1 X37.010 Y140.308 E0.05562
G1 X37.148 Y141.357 E0.05562
G1 X37.553 Y142.335 E0.05562
G1 X38.197 Y143.175 E0.05562
G1 X39.037 Y143.819 E0.05562
G1 X40.014 Y144.224 E0.05562
G1 X41.064 Y144.362 E0.05562
G1 X42.113 Y144.224 E0.05562
G1 X43.091 Y143.819 E0.05562
G1 X43.930 Y143.175 E0.05562
G1 X44.574 Y142.335 E0.05562
G1 X44.979 Y141.357 E0.05562
G1 X45.118 Y140.308 E0.05562
G1 X44.984 Y139.291 E0.05392
G1 X46.314 Y139.466 E0.07051
G1 X47.673 Y139.287 E0.07208
G1 X48.941 Y138.762 E0.07208
G1 X50.029 Y137.927 E0.07208
G1 X50.864 Y136.839 E0.07208
G1 X51.389 Y135.572 E0.07208
G1 X51.568 Y134.212 E0.07209
G1 X51.389 Y132.852 E0.07209
G1 X50.864 Y131.585 E0.07208
G1 X50.045 Y130.518 E0.07072
G1 F7200.000
G1 X54.159 Y130.517 E-1.14000
G1 E-0.06000 F2100.00000
G1 X48.454 Y129.814 F9000.000
G1 E1.20000 F1800.00000
G1 X259.159 Y129.820 E11.07419
G1 X259.220 Y130.126 E0.01636
G1 X259.005 Y130.214 E0.01220
G1 X258.049 Y130.948 E0.06334
G1 X257.316 Y131.904 E0.06334
G1 X256.855 Y133.017 E0.06334
G1 X256.697 Y134.212 E0.06334
G1 X256.855 Y135.407 E0.06334
G1 X257.316 Y136.520 E0.06334
G1 X258.049 Y137.477 E0.06334
G1 X259.005 Y138.210 E0.06334
G1 X260.119 Y138.671 E0.06334
G1 X261.314 Y138.829 E0.06334
G1 X262.508 Y138.671 E0.06334
G1 X263.516 Y138.254 E0.05734
G1 X263.694 Y138.485 E0.01529
G1 X263.605 Y138.600 E0.00765
G1 X263.264 Y139.424 E0.04687
G1 X263.147 Y140.308 E0.04687
G1 X263.264 Y141.192 E0.04687
G1 X263.605 Y142.016 E0.04687
G1 X264.148 Y142.724 E0.04687
G1 X264.855 Y143.267 E0.04687
G1 X265.679 Y143.608 E0.04687
G1 X266.564 Y143.725 E0.04687
G1 X267.448 Y143.608 E0.04687
G1 X268.272 Y143.267 E0.04687
G1 X268.979 Y142.724 E0.04687
G1 X269.522 Y142.016 E0.04687
G1 X269.864 Y141.192 E0.04687
G1 X269.980 Y140.308 E0.04687
G1 X269.864 Y139.424 E0.04687
G1 X269.522 Y138.600 E0.04687
G1 X268.979 Y137.893 E0.04687
G1 X268.272 Y137.350 E0.04687
G1 X267.448 Y137.008 E0.04687
G1 X266.564 Y136.892 E0.04687
G1 X265.679 Y137.008 E0.04687
G1 X265.111 Y137.244 E0.03235
G1 X264.934 Y137.013 E0.01529
G1 X265.312 Y136.520 E0.03263
G1 X265.773 Y135.407 E0.06334
G1 X265.930 Y134.212 E0.06334
G1 X265.773 Y133.017 E0.06334
G1 X265.312 Y131.904 E0.06334
G1 X264.578 Y130.948 E0.06334
G1 X263.622 Y130.214 E0.06334
G1 X263.408 Y130.126 E0.01218
G1 X263.468 Y129.820 E0.01636
